!!!COM: Beethoven, Ludwig van
!!!CDT: 1770///-1827///
!!!ODT: 1798///-1800///
!!!OTL: String Quartet No. 3 in D Major, Op. 18, No. 3
!!!OPS: Op. 18
!!!ONM: No. 3
!!!OMV: Mvmt. 1
!!!OMD: Allegro
!!!PDT: 1801///
!!!PPP: Vienna
!!!PPR: C. Haslinger qm Tobias
!!!ODE: Dem F&uuml;rsten von Lobkowitz gewidmet
!!!MPD: 1798///-1800///
**kern	**dynam	**kern	**dynam	**kern	**dynam	**kern	**dynam
*staff4	*staff4	*staff3	*staff3	*staff2	*staff2	*staff1	*staff1
*Icello	*Icello	*Iviola	*Iviola	*Ivioln	*Ivioln	*Ivioln	*Ivioln
*>[I,A,A1,A,A2]	*>[I,A,A1,A,A2]	*>[I,A,A1,A,A2]	*>[I,A,A1,A,A2]	*>[I,A,A1,A,A2]	*>[I,A,A1,A,A2]	*>[I,A,A1,A,A2]	*>[I,A,A1,A,A2]
*>norep[I,A,A2]	*>norep[I,A,A2]	*>norep[I,A,A2]	*>norep[I,A,A2]	*>norep[I,A,A2]	*>norep[I,A,A2]	*>norep[I,A,A2]	*>norep[I,A,A2]
*>I	*>I	*>I	*>I	*>I	*>I	*>I	*>I
*clefF4	*clefF4	*clefC3	*clefC3	*clefG2	*clefG2	*clefG2	*clefG2
*k[f#c#]	*k[f#c#]	*k[f#c#]	*k[f#c#]	*k[f#c#]	*k[f#c#]	*k[f#c#]	*k[f#c#]
*D:	*D:	*D:	*D:	*D:	*D:	*D:	*D:
*M2/2	*M2/2	*M2/2	*M2/2	*M2/2	*M2/2	*M2/2	*M2/2
*MM196	*MM196	*MM196	*MM196	*MM196	*MM196	*MM196	*MM196
=1-	=1-	=1-	=1-	=1-	=1-	=1-	=1-
1r	.	1r	.	1r	.	(1a	p
=2	=2	=2	=2	=2	=2	=2	=2
1r	.	1r	.	1r	.	[1gg)	.
=3!|:	=3!|:	=3!|:	=3!|:	=3!|:	=3!|:	=3!|:	=3!|:
*>A	*>A	*>A	*>A	*>A	*>A	*>A	*>A
(1D	p	[1A	p	1f#	p	(8gg\L]	.
.	.	.	.	.	.	8ff#\	.
.	.	.	.	.	.	8ee\	.
.	.	.	.	.	.	8dd\J	.
.	.	.	.	.	.	8cc#\L	.
.	.	.	.	.	.	8dd\	.
.	.	.	.	.	.	8ff#\	.
.	.	.	.	.	.	8dd\J)	.
=4	=4	=4	=4	=4	=4	=4	=4
1E	.	1A_	.	1g	.	1cc#	.
=5	=5	=5	=5	=5	=5	=5	=5
1F#	.	1A]	.	1a	.	(8ee\L	.
.	.	.	.	.	.	8dd\	.
.	.	.	.	.	.	8cc#\	.
.	.	.	.	.	.	8dd\J	.
.	.	.	.	.	.	8ee\L	.
.	.	.	.	.	.	8dd\	.
.	.	.	.	.	.	8ff#\	.
.	.	.	.	.	.	8dd\J)	.
=6	=6	=6	=6	=6	=6	=6	=6
1G	.	[1d	.	1g	.	1b	.
=7	=7	=7	=7	=7	=7	=7	=7
1A)	.	1d]	.	1f#	.	[1a	.
=8	=8	=8	=8	=8	=8	=8	=8
1AA	.	1c#	.	1e)	.	(4a/]	.
.	.	.	.	.	.	8b/L	.
.	.	.	.	.	.	8a/J)	.
.	.	.	.	.	.	(8a/L	.
.	.	.	.	.	.	8g/	.
.	.	.	.	.	.	8f#/	.
.	.	.	.	.	.	8g/J)	.
=9	=9	=9	=9	=9	=9	=9	=9
[1D	.	(1c#	.	[1A	.	(1e#	.
=10	=10	=10	=10	=10	=10	=10	=10
4D\]	.	4d\)	.	4A/]	.	4f#/)	.
4r	.	4r	.	4r	.	4r	.
2r	.	2r	.	2r	.	2r	.
=11	=11	=11	=11	=11	=11	=11	=11
1r	.	(1A	p	1r	.	1r	.
=12	=12	=12	=12	=12	=12	=12	=12
1r	.	[1g)	.	1r	.	1r	.
=13	=13	=13	=13	=13	=13	=13	=13
(1D	.	8g\L]	<	(1a	.	1r	.
.	.	(8f#\	.	.	.	.	.
.	.	8e\	<	.	.	.	.
.	.	8d\J	.	.	.	.	.
.	.	8c#\L	.	.	.	.	.
.	.	8d\	.	.	.	.	.
.	.	8f#\	.	.	.	.	.
.	.	8d\J)	.	.	.	.	.
=14	=14	=14	=14	=14	=14	=14	=14
1E	<	(1c#	.	[1gg)	<	1r	.
=15	=15	=15	=15	=15	=15	=15	=15
[1F#	.	1d	.	8gg\L]	.	(1aa	.
.	.	.	.	(8ff#\	.	.	.
.	.	.	.	8ee\	.	.	.
.	.	.	.	8dd\J	.	.	.
.	.	.	.	8cc#\L	.	.	.
.	.	.	.	8dd\	.	.	.
.	.	.	.	8ff#\	.	.	.
.	.	.	.	8dd\J)	.	.	.
=16	=16	=16	=16	=16	=16	=16	=16
1F#])	f	1a)	f	(1d# 1ccn	f	[1cccn)	<
=17	=17	=17	=17	=17	=17	=17	=17
4G\	p	4g\	p	4e/) 4b/	p	8ccc\L]	p
.	.	.	.	.	.	(8bb\	.
4r	.	4r	.	4r	.	8aa#\	.
.	.	.	.	.	.	8bb\J	.
2r	.	2r	.	2r	.	8eee\L	.
.	.	.	.	.	.	8bb\	.
.	.	.	.	.	.	8aa\	.
.	.	.	.	.	.	8gg\J	.
=18	=18	=18	=18	=18	=18	=18	=18
1r	.	1r	.	1r	.	8ff#\L	.
.	.	.	.	.	.	8gg\	.
.	.	.	.	.	.	8bb\	.
.	.	.	.	.	.	8gg\J	.
.	.	.	.	.	.	8ff#\L	.
.	.	.	.	.	.	8ee\	.
.	.	.	.	.	.	8dd#\	.
.	.	.	.	.	.	8ee\J)	.
=19	=19	=19	=19	=19	=19	=19	=19
1r	.	1r	.	1r	.	(8gg\L	.
.	.	.	.	.	.	8ee\	.
.	.	.	.	.	.	8ccn\	.
.	.	.	.	.	.	8b\J	.
.	.	.	.	.	.	8a#\L	.
.	.	.	.	.	.	8b\	.
.	.	.	.	.	.	8ee\	.
.	.	.	.	.	.	8b\J	.
=20	=20	=20	=20	=20	=20	=20	=20
2r	.	2r	.	2r	.	8a/L	.
.	.	.	.	.	.	8g/	.
.	.	.	.	.	.	8f#/	.
.	.	.	.	.	.	8e/J	.
4r	.	4r	.	4r	.	8d#/L	.
.	.	.	.	.	.	8e/	.
(4G\	.	(4B/	.	[4e/	.	8f#/	.
.	.	.	.	.	.	8e/J)	.
=21	=21	=21	=21	=21	=21	=21	=21
4A\)	.	4cn\)	.	(4e/]	.	(8g/L	.
.	.	.	.	.	.	8f#/	.
4AA/	.	4Cn/	.	4f#/)	.	8dd/	.
.	.	.	.	.	.	8ccn/J)	.
4r	.	4r	.	4r	.	(8e/L	.
.	.	.	.	.	.	8f#/	.
(4A\	.	(4cn\	.	[4f#/	.	8g/	.
.	.	.	.	.	.	8f#/J)	.
=22	=22	=22	=22	=22	=22	=22	=22
4B\)	.	4d\)	.	(4f#/]	.	(8a\L	.
.	.	.	.	.	.	8g\	.
4BB/	.	4D/	.	4g/)	.	8ee\	.
.	.	.	.	.	.	8dd\J)	.
4r	.	4r	.	4r	.	(8f##/L	.
.	.	.	.	.	.	8g#/	.
4B\	.	4d\	.	[4g#/	.	8a/	.
.	.	.	.	.	.	8g#/J)	.
=23	=23	=23	=23	=23	=23	=23	=23
[1c#	<	[1e	<	4g#/]	.	(8ee\L	<
.	.	.	.	.	.	8dd#\	<
.	.	.	.	[2.a/	<	8ff#\	.
.	.	.	.	.	.	8ee\J	.
.	.	.	.	.	.	8gg\L	.
.	.	.	.	.	.	8ff#\	.
.	.	.	.	.	.	8aa\	.
.	.	.	.	.	.	8gg\J)	.
=24	=24	=24	=24	=24	=24	=24	=24
2c#\]	<	2e\]	<	2a/]	<	(8ee\L	.
.	.	.	.	.	.	8dd#\	.
.	.	.	.	.	.	8ff#\	.
.	.	.	.	.	.	8ee\J	.
[2A\	.	[2e\	.	[2g/	.	8cc#\L	.
.	.	.	.	.	.	8b#\	.
.	.	.	.	.	.	8dd\	.
.	.	.	.	.	.	8cc#\J)	.
=25	=25	=25	=25	=25	=25	=25	=25
4A\]	.	4e\]	.	4g/]	.	(8a/L	.
.	.	.	.	.	.	8g#/	.
(4C#/	.	2A/	.	(4e/	.	8b/	.
.	.	.	.	.	.	8a/J	.
4D\)	.	.	.	4d/	.	8g/L	.
.	.	.	.	.	.	8f#/	.
(4FF#/	p	(4A/	.	4d/	.	8a/	.
.	.	.	.	.	.	8f#/J)	.
=26	=26	=26	=26	=26	=26	=26	=26
4GG/)	.	4G/)	p	4B/	p	(8f#/L	p
.	.	.	.	.	.	8e/	.
4r	.	[4G/	.	4B/	.	8g/	.
.	.	.	.	.	.	8e/J	.
4AA/	.	4G/]	.	&(4A/&)	.	8d/L	.
.	.	.	.	.	.	8c#/	.
4r	.	(4G/	.	4A/	.	8e/	.
.	.	.	.	.	.	8c#/J)	.
=27	=27	=27	=27	=27	=27	=27	=27
(1DD	.	4F#/)	.	8A/L	.	4d/	.
.	.	.	.	8d/	.	.	.
.	.	4r	.	8f#/	.	4r	.
.	.	.	.	8d/J	.	.	.
.	.	2r	.	8A/L	.	2r	.
.	.	.	.	8d/	.	.	.
.	.	.	.	8f#/	.	.	.
.	.	.	.	8d/J)	.	.	.
=28	=28	=28	=28	=28	=28	=28	=28
1Cn	<	1r	.	(8A/L	.	(1dd	.
.	.	.	.	8d/	<	.	.
.	.	.	.	8f#/	.	.	.
.	.	.	.	8d/J	.	.	.
.	.	.	.	8A/L	.	.	.
.	.	.	.	8d/	.	.	.
.	.	.	.	8f#/	.	.	.
.	.	.	.	8d/J)	.	.	.
=29	=29	=29	=29	=29	=29	=29	=29
1BB	>	1r	>	(8B/L	.	[1gg)	<
.	.	.	.	8d/	.	.	.
.	.	.	.	8g/	.	.	.
.	.	.	.	8d/J	.	.	.
.	.	.	.	8B/L	.	.	.
.	.	.	.	8d/	.	.	.
.	.	.	.	8g/	.	.	.
.	.	.	.	8d/J)	.	.	.
=30	=30	=30	=30	=30	=30	=30	=30
1C#)	.	1r	.	(8A/L	.	(8gg\L]	>
.	.	.	.	8e/	.	8ff#\)	.
.	.	.	.	8g/	.	8ee\	.
.	.	.	.	8e/J	.	8dd\J	.
.	.	.	.	8A/L	.	8cc#/L	.
.	.	.	.	8e/	.	8b/	.
.	.	.	.	8g/	.	8a/	.
.	.	.	.	8e/J)	.	8g/J	.
=31	=31	=31	=31	=31	=31	=31	=31
(1D	.	(8A\L	.	4d/	.	(4e#/	.
.	.	8d\	<	.	.	.	.
.	.	8f#\	.	4r	.	4f#/)	.
.	.	8d\J	.	.	.	.	.
.	.	8A\L	.	8r	.	2r	.
.	.	8d\	.	8aa\L	.	.	.
.	.	8f#\	.	8gg\	.	.	.
.	.	8d\J)	.	8ff#\J	.	.	.
=32	=32	=32	=32	=32	=32	=32	=32
1cn	<	(8A\L	.	(8ee\L	.	(1ddd	.
.	.	8d\	>	8dd\	.	.	.
.	.	8f#\	.	8cc#\	<	.	.
.	.	8d\J	.	8dd\J	.	.	.
.	.	8A\L	.	8cc#\L	.	.	.
.	.	8d\	.	8dd\	.	.	.
.	.	8f#\	.	8ee\	.	.	.
.	.	8d\J)	.	8dd\J	.	.	.
=33	=33	=33	=33	=33	=33	=33	=33
1B	>	(8B\L	.	&((2dd\&)	.	[1ggg)	<
.	.	8d\	.	.	.	.	.
.	.	8g\	.	.	.	.	.
.	.	8d\J	.	.	.	.	.
.	.	8B\L	.	[2gg\)	.	.	.
.	.	8d\	.	.	.	.	.
.	.	8g\	.	.	.	.	.
.	.	8d\J)	.	.	.	.	.
=34	=34	=34	=34	=34	=34	=34	=34
1c#)	.	(8A\L	.	4gg\]	>	(8ggg\L]	>
.	.	8e\	.	.	.	8fff#\)	.
.	.	8g\	.	4ee\	.	8eee\	.
.	.	8e\J	.	.	.	8ddd\J	.
.	.	8a\L	.	4cc#\	.	8ccc#\L	.
.	.	8e\	.	.	.	8bb\	.
.	.	8a\	.	4g/)	.	8aa\	.
.	.	8e\J)	.	.	.	8gg\J	.
=35	=35	=35	=35	=35	=35	=35	=35
4d\	.	4a\	.	4f#/	.	(4ee#\	.
4r	.	4r	.	4r	.	4ff#\)	.
2r	.	2r	.	2r	.	4r	.
.	.	.	.	.	.	(12aa\L	.
.	.	.	.	.	.	12ff#\	.
.	.	.	.	.	.	12dd\J)	.
=36	=36	=36	=36	=36	=36	=36	=36
1r	.	4r	.	4r	.	2.a/	.
.	.	(4c#\	.	(4g/	.	.	.
.	.	4d\)	.	4f#/)	.	.	.
.	.	4r	.	4r	.	(12a\L	.
.	.	.	.	.	.	12dd\	.
.	.	.	.	.	.	12ff#\J)	.
=37	=37	=37	=37	=37	=37	=37	=37
4r	.	4r	.	4r	.	[2aa\	.
(4C#/	.	(4e\	.	(4gg\	.	.	.
4D\)	.	4d\)	.	4ff#\)	.	8aa\L]	.
.	.	.	.	.	.	8bb\	.
4r	.	4d\	.	4f#/	.	8ccc#\	.
.	.	.	.	.	.	8ddd\J	.
=38	=38	=38	=38	=38	=38	=38	=38
4G\	.	4r	.	4r	.	(8aa#\L	.
.	.	.	.	.	.	8bb\)	.
4r	.	4d\	.	4e/	.	8r	.
.	.	.	.	.	.	8bb\J	.
4A\	.	4r	.	4r	.	(8cc#\L	.
.	.	.	.	.	.	8aa\)	.
4r	.	4c#\	.	4e/	.	8r	.
.	.	.	.	.	.	8aa\J	.
=39	=39	=39	=39	=39	=39	=39	=39
4D\	.	4r	.	4r	.	(4gg\	.
4r	.	4d\	.	4f#/	.	4ff#\)	.
2r	.	2r	.	2r	.	4r	.
.	.	.	.	.	.	(12ff#\L	.
.	.	.	.	.	.	12dd\	.
.	.	.	.	.	.	12b\J)	.
=40	=40	=40	=40	=40	=40	=40	=40
1r	.	4r	.	4r	.	2.f#/	.
.	.	(4A#/	.	(4e/	.	.	.
.	.	4B/)	.	4d/)	.	.	.
.	.	4r	.	4r	.	(12f#/L	.
.	.	.	.	.	.	12b/	.
.	.	.	.	.	.	12dd/J)	.
=41	=41	=41	=41	=41	=41	=41	=41
4r	.	4r	.	4r	.	[2ff#\	.
(4A#\	.	(4c#\	.	(4ee\	.	.	.
4B\)	.	4B/)	.	4dd\)	.	8ff#\L]	.
.	.	.	.	.	.	8gg#\	.
4r	.	4B/	.	4d/	.	8aa#\	.
.	.	.	.	.	.	8bb\J	.
=42	=42	=42	=42	=42	=42	=42	=42
4E\	.	4r	.	4r	.	(8ff#\L	.
.	.	.	.	.	.	8gg\)	.
4r	.	4B/	.	4c#/	.	8r	.
.	.	.	.	.	.	8gg\J	.
4F#\	.	4r	.	4r	.	(8a#\L	.
.	.	.	.	.	.	8ff#\)	.
4r	.	4A#/	.	4c#/	.	8r	.
.	.	.	.	.	.	8ff#\J	.
=43	=43	=43	=43	=43	=43	=43	=43
4BB/	.	4r	.	4r	.	(4ee\	.
4r	.	4B/	.	4d/	.	4dd\)	.
4r	.	8e\L	.	4r	.	4r	.
.	.	8f#\	.	.	.	.	.
(4Cn/	.	8g#\	.	4A/	.	4cn/	.
.	.	8a\J	.	.	.	.	.
=44	=44	=44	=44	=44	=44	=44	=44
4D\)	.	(8e\L	.	4r	.	4r	.
.	.	8fn\)	.	.	.	.	.
4r	.	8r	.	4A/	.	4B/	.
.	.	8fn\J	.	.	.	.	.
4E\	.	(8G#/L	.	4r	.	4r	.
.	.	8e/)	.	.	.	.	.
4r	.	8r	.	4G#/	.	4B/	.
.	.	8e/J	.	.	.	.	.
=45	=45	=45	=45	=45	=45	=45	=45
4AA/	.	(4d\	.	4r	.	4r	.
4r	.	4cn\)	.	4A/	.	4cn/	.
2r	.	4Fn/	.	(12ccn\L	.	4d#/	.
.	.	.	.	12a\	.	.	.
.	.	.	.	12b\J	.	.	.
.	.	4fn\	.	12ccn\L	.	4dd#\	.
.	.	.	.	12b\	.	.	.
.	.	.	.	12a\J)	.	.	.
=46	=46	=46	=46	=46	=46	=46	=46
1r	.	4r	.	(12ccn\L	.	4r	.
.	.	.	.	12a\	.	.	.
.	.	.	.	12b\J	.	.	.
.	.	4fn\	.	12ccn\L	.	4dd#\	.
.	.	.	.	12b\	.	.	.
.	.	.	.	12a\J	.	.	.
.	.	4r	.	12ccn\L	.	4r	.
.	.	.	.	12a\	.	.	.
.	.	.	.	12b\J	.	.	.
.	.	4fn\	.	12ccn\L	.	4dd#\	.
.	.	.	.	12b\	.	.	.
.	.	.	.	&(12a\J&)	.	.	.
=47	=47	=47	=47	=47	=47	=47	=47
2r	.	4e\	.	4g#/	.	4ee\	.
.	.	4r	.	4e/)	.	4r	.
4FFn/	.	4r	.	4A/	.	(12cccn\L	.
.	.	.	.	.	.	12aa\	.
.	.	.	.	.	.	12bb\J	.
4Fn\	.	4d#\	.	4a/	.	12cccn\L	.
.	.	.	.	.	.	12bb\	.
.	.	.	.	.	.	12aa\J)	.
=48	=48	=48	=48	=48	=48	=48	=48
4r	.	4r	.	4r	.	(12cccn\L	.
.	.	.	.	.	.	12aa\	.
.	.	.	.	.	.	12bb\J	.
4Fn\	.	4d#\	.	4a/	.	12cccn\L	.
.	.	.	.	.	.	12bb\	.
.	.	.	.	.	.	12aa\J)	.
4r	.	4r	.	4r	.	(12cccn\L	.
.	.	.	.	.	.	12aa\	.
.	.	.	.	.	.	12bb\J	.
4Fn\	.	4d#\	.	4a/	.	12cccn\L	.
.	.	.	.	.	.	12bb\	.
.	.	.	.	.	.	12aa\J)	.
=49	=49	=49	=49	=49	=49	=49	=49
4E\	.	4e\	.	4g#/	.	(4gg#\	.
4r	.	4r	.	4r	.	8ee\)	.
.	.	.	.	.	.	8r	.
4FFn/	.	(12cn/L	.	(12ccn\L	.	4dd#\	.
.	.	12A/	.	12a\	.	.	.
.	.	12B/J	.	12b\J	.	.	.
4Fn\	.	12cn/L	.	12ccn\L	.	4ddd#\	.
.	.	12B/	.	12b\	.	.	.
.	.	12A/J)	.	12a\J)	.	.	.
=50	=50	=50	=50	=50	=50	=50	=50
4r	.	(12cn/L	.	(12ccn\L	.	4r	.
.	.	12A/	.	12a\	.	.	.
.	.	12B/J	.	12b\J	.	.	.
4Fn\	.	12cn/L	.	12ccn\L	.	4ddd#\	.
.	.	12B/	.	12b\	.	.	.
.	.	12A/J)	.	12a\J	.	.	.
4r	.	(12cn/L	.	12ccn\L	.	4r	.
.	.	12A/	.	12a\	.	.	.
.	.	12B/J	.	12b\J	.	.	.
4Fn\	.	12cn/L	.	12ccn\L	.	4ddd#\	.
.	.	12B/	.	12b\	.	.	.
.	.	12A/J)	.	&(12a\J&)	.	.	.
=51	=51	=51	=51	=51	=51	=51	=51
8E\L	f	4G#/	f	4g#/	f	2.eee\	f
8e\	p	.	.	.	.	.	.
8d\	.	4r	.	4r	.	.	.
8c#\J	.	.	.	.	.	.	.
8B\L	.	2r	.	2r	.	.	.
8A\	.	.	.	.	.	.	.
8G#\	.	.	.	.	.	8r	.
8F#\J	.	.	.	.	.	(16ee\LL	p
.	.	.	.	.	.	16ff#\JJ)	.
=52	=52	=52	=52	=52	=52	=52	=52
8E\L	.	1r	.	2.ee\	p	2.gg#\	.
8e\	.	.	.	.	.	.	.
8d\	.	.	.	.	.	.	.
8c#\J	.	.	.	.	.	.	.
8B\L	.	.	.	.	.	.	.
8A\	.	.	.	.	.	.	.
8G#\	.	.	.	8r	.	8r	.
8F#\J	.	.	.	16ee\LL	.	(16gg#\LL	.
.	.	.	.	16ff#\JJ)	.	16aa\JJ)	.
=53	=53	=53	=53	=53	=53	=53	=53
8E\L	.	1r	.	2.gg#\	.	2.bb\	.
8e\	.	.	.	.	.	.	.
8d\	.	.	.	.	.	.	.
8c#\J	.	.	.	.	.	.	.
8B\L	.	.	.	.	.	.	.
8A\	.	.	.	.	.	.	.
8G#\	.	.	.	8r	.	8r	.
8F#\J	.	.	.	(16gg#\LL	.	(16bb\LL	.
.	.	.	.	16aa\JJ)	.	16ccc#\JJ)	.
=54	=54	=54	=54	=54	=54	=54	=54
8E/L	.	4r	.	4bb\	.	4ddd\	.
8EE/	.	.	.	.	.	.	.
8FF#/	.	4e\	p	4b\	.	4ddd\	.
8GG#/J	.	.	.	.	.	.	.
8AA/L	.	4e\	.	4b\	.	4ddd\	.
8BB/	.	.	.	.	.	.	.
8C#/	.	4e\	.	4b\	.	4ddd\	.
8D/J	.	.	.	.	.	.	.
=55	=55	=55	=55	=55	=55	=55	=55
8E\L	<	2e\	<	2b\	<	2ddd\	<
8F#\	.	.	.	.	.	.	.
8G#\	.	.	.	.	.	.	.
8E\J	.	.	.	.	.	.	.
8A\L	.	2e\	.	2a/	<	2ccc#\	<
8AA\	.	.	.	.	.	.	.
8BB\	.	.	.	.	.	.	.
8C#\J	.	.	.	.	.	.	.
=56	=56	=56	=56	=56	=56	=56	=56
8D/L	.	2f#\	.	2a/	.	2bb\	.
8BB/	.	.	.	.	.	.	.
8C#/	.	.	.	.	.	.	.
8D/J	.	.	.	.	.	.	.
8E/L	.	2d\	.	2g#/	.	2ee\	.
8D/	.	.	.	.	.	.	.
8C#/	.	.	.	.	.	.	.
8BB/J	.	.	.	.	.	.	.
=57	=57	=57	=57	=57	=57	=57	=57
4AA/	p	4c#\	.	4a/	p	8aa\L	.
.	.	.	.	.	.	(8eee\	p
4r	.	4r	p	4r	.	8ddd#\	.
.	.	.	.	.	.	8eee\J	.
2r	.	2r	.	2r	.	8ddd\L	.
.	.	.	.	.	.	8ccc#\	.
.	.	.	.	.	.	8bb\	.
.	.	.	.	.	.	8aa\J)	.
=58	=58	=58	=58	=58	=58	=58	=58
2r	.	2.E/	.	2.e/	.	8gg#\L	.
.	.	.	.	.	.	8eee\	.
.	.	.	.	.	.	8ddd\	.
.	.	.	.	.	.	8ccc#\J	.
2e\	.	.	.	.	.	8bb\L	.
.	.	.	.	.	.	8aa\	.
.	.	8r	.	8r	.	8gg#\	.
.	.	(16E/LL	.	(16G#/LL	.	8ff#\J	.
.	.	16F#/JJ)	.	16A/JJ)	.	.	.
=59	=59	=59	=59	=59	=59	=59	=59
2r	.	2.G#/	.	2.B/	.	8ee\L	.
.	.	.	.	.	.	8eee\	.
.	.	.	.	.	.	8ddd\	.
.	.	.	.	.	.	8ccc#\J	.
2e\	.	.	.	.	.	8bb\L	.
.	.	.	.	.	.	8aa\	.
.	.	8r	.	8r	.	8gg#\	.
.	.	(16G#/LL	.	(16B/LL	.	8ff#\J	.
.	.	16A/JJ)	.	16c#/JJ)	.	.	.
=60	=60	=60	=60	=60	=60	=60	=60
2r	.	2.B/	.	2.d/	.	8ee\L	.
.	.	.	.	.	.	8eee\	.
.	.	.	.	.	.	8ddd\	.
.	.	.	.	.	.	8ccc#\J	.
2e\	.	.	.	.	.	8bb\L	.
.	.	.	.	.	.	8aa\	.
.	.	8r	.	8r	.	8gg#\	.
.	.	(16B/LL	.	(16g#/LL	.	8ff#\J	.
.	.	16c#/JJ)	.	16a/JJ)	.	.	.
=61	=61	=61	=61	=61	=61	=61	=61
1r	.	4d\	>	4b\	>	8ee\L	.
.	.	.	.	.	.	8eee\	>
.	.	4d\	.	4b\	.	8ddd\	.
.	.	.	.	.	.	8ccc#\J	.
.	.	4d\	.	4b\	.	8bb\L	.
.	.	.	.	.	.	8aa\	.
.	.	4d\	.	4b\	.	8gg#\	.
.	.	.	.	.	.	8ff#\J	.
=62	=62	=62	=62	=62	=62	=62	=62
1r	.	2.d\	.	2.b\	.	8ee#\L	.
.	.	.	.	.	.	8eee\	.
.	.	.	.	.	.	8ddd\	.
.	.	.	.	.	.	8ccc#\J	.
.	.	.	.	.	.	8bb\L	.
.	.	.	.	.	.	8aa\	.
.	.	8r	.	8r	.	8gg#\	.
.	.	(16g#\LL	.	(16b\LL	.	8ff#\J	.
.	.	16a\JJ)	.	16cc#\JJ)	.	.	.
=63	=63	=63	=63	=63	=63	=63	=63
1r	.	4b\	.	4dd\	.	8ee#\L	.
.	.	.	.	.	.	8eee\	.
.	.	4b\	.	4dd\	.	8ddd\	.
.	.	.	.	.	.	8ccc#\J	.
.	.	4b\	.	4dd\	.	8bb\L	.
.	.	.	.	.	.	8aa\	.
.	.	4b\	.	4dd\	.	8gg#\	.
.	.	.	.	.	.	8ff#\J	.
=64	=64	=64	=64	=64	=64	=64	=64
1r	.	[1b	pp	[1dd	.	4ffn\	pp
.	.	.	.	.	.	(8ddd\L	.
.	.	.	.	.	.	8cccn\J	.
.	.	.	.	.	.	8bb\L	.
.	.	.	.	.	.	8aa\	.
.	.	.	.	.	.	8gg\	.
.	.	.	.	.	.	8ff#\J)	.
=65	=65	=65	=65	=65	=65	=65	=65
1r	.	1b_	.	1dd_	pp	4ffn\	.
.	.	.	.	.	.	(8ddd\L	.
.	.	.	.	.	.	8cccn\J	.
.	.	.	.	.	.	8bb\L	.
.	.	.	.	.	.	8aa\	.
.	.	.	.	.	.	8gg\	.
.	.	.	.	.	.	8ff#\J)	.
=66	=66	=66	=66	=66	=66	=66	=66
1r	<	1b_	.	1dd_	.	(8ffn\L	.
.	.	.	.	.	.	8gg\	.
.	.	.	.	.	.	8ffn\	.
.	.	.	.	.	.	8ee\J	.
.	.	.	.	.	.	8ffn\L	<
.	.	.	.	.	.	8gg\	<
.	.	.	.	.	.	8ffn\	.
.	.	.	.	.	.	8ee\J	.
=67	=67	=67	=67	=67	=67	=67	=67
1g	.	1b]	<	1dd]	<	8ffn\L	.
.	.	.	.	.	.	8gg\	.
.	.	.	.	.	.	8aa\	.
.	.	.	.	.	.	8gg\J	.
.	.	.	.	.	.	8bb\L	.
.	.	.	.	.	.	8aa\	.
.	.	.	.	.	.	8gg\	.
.	.	.	.	.	.	8ffn\J)	.
=68	=68	=68	=68	=68	=68	=68	=68
4cn\	<	4g\	p	4ccn\	p	4ee\	p
2cn\	.	2g\	.	2ccn\	.	(2ee\	.
(4cn\	.	4g\	.	(4ccn\	.	8ffn\L	.
.	.	.	.	.	.	8ee\J)	.
=69	=69	=69	=69	=69	=69	=69	=69
4fn\)	.	4g\	.	4b\	.	4dd\	.
2fn\	.	2g\	.	2b\	.	[4gg\	.
.	.	.	.	.	.	8gg\L]	.
.	.	.	.	.	.	(8ffn\	.
(4fn\	.	[4g\	.	4b\	.	8ee\	.
.	.	.	.	.	.	8dd\J)	.
=70	=70	=70	=70	=70	=70	=70	=70
4e\)	.	4g\]	.	4ccn\	.	4ccn\	.
(4e\	.	[4g\	.	4g/	.	(4ccn\	.
4B\)	.	4g\]	.	4g/	.	4dd\)	.
(4B\	.	[4g\	.	4g/	.	(4dd\	.
=71	=71	=71	=71	=71	=71	=71	=71
4cn\)	.	4g\]	.	4g/	.	4ee\)	.
(4cn\	.	[4g\	.	4ccn\	.	(4ee\	.
4G\)	.	4g\]	.	4b\	.	4dd\)	.
(4G\	.	(4g\	.	4b\	.	(4dd\	.
=72	=72	=72	=72	=72	=72	=72	=72
4A\)	.	4e\)	.	4a/	.	4ccn\)	.
2A\	.	2e\	.	2a/	.	(2ccn\	.
(4A\	.	4e\	.	4a/	.	8dd\L	.
.	.	.	.	.	.	8ccn\J)	.
=73	=73	=73	=73	=73	=73	=73	=73
4d\)	.	4e\	.	4g#/	.	4b\	.
2d\	.	2e\	.	2g#/	.	[4ee\	.
.	.	.	.	.	.	8ee\L]	.
.	.	.	.	.	.	(8dd\	.
(4d\	.	[4e\	.	4g#/	.	8ccn\	.
.	.	.	.	.	.	8b\J)	.
=74	=74	=74	=74	=74	=74	=74	=74
4cn\)	.	4e\]	.	4a/)	.	4a/	.
(4cn\	.	(4e\	.	[4a/	.	(4a/	.
4Fn\)	.	4d\)	.	4a/]	.	4b\)	.
(4Fn\	.	(4d\	.	[4a/	.	(4b\	.
=75	=75	=75	=75	=75	=75	=75	=75
4E\)	.	4e\)	.	4a/]	.	4ccn\)	.
4r	.	[4e\	.	(4a/	.	(4ccn\	.
4E\	.	4e\]	.	4g#/)	.	4b\)	.
4r	.	4e\	.	4g#/	.	4b\	.
=76	=76	=76	=76	=76	=76	=76	=76
2AA/	f	2C#/	.	4ee\	f	2eee\	f
.	.	.	.	4ccc#\	.	.	.
4C#/	.	4E/	.	4aa\	.	4ccc#\	.
4E\	.	4A/	.	4ee\	.	4aa\	.
=77	=77	=77	=77	=77	=77	=77	=77
2A\	.	2c#\	.	2cc#\	.	2ee\	.
2B\	.	2d\	.	2b\	.	2dd\	.
=78	=78	=78	=78	=78	=78	=78	=78
1c#	.	1e	.	1a#	.	1cc#	.
=79	=79	=79	=79	=79	=79	=79	=79
1d#	.	[1f#	.	[1a	.	1ccn	.
=80	=80	=80	=80	=80	=80	=80	=80
1e	.	4f#\]	.	(2a/]	.	(2.b\	.
.	.	(4e\	.	.	.	.	.
.	.	4b\	.	4g#/	.	.	.
.	.	4a\	.	4f#/	.	8cc#\L	.
.	.	.	.	.	.	8dd\J)	.
=81	=81	=81	=81	=81	=81	=81	=81
1E	.	4g#\	.	4e/	.	8ee\L	.
.	.	.	.	.	.	8ff#\	.
.	.	4f#\	.	4d/	.	8gg#\	.
.	.	.	.	.	.	8aa\J	.
.	.	4e\	.	4c#/	.	8bb\L	.
.	.	.	.	.	.	8ccc#\	.
.	.	4d\)	.	4B/)	.	8ddd\	.
.	.	.	.	.	.	8ddd#\J	.
=82	=82	=82	=82	=82	=82	=82	=82
4AA/	ff	4c#\	ff	4A/	.	4eee\	ff
4C#/	.	4E/	.	4aa\	.	4eee\	.
4E\	.	4A/	.	4aa\	.	4ccc#\	.
4A\	.	4c#\	.	4ee\	.	4aa\	.
=83	=83	=83	=83	=83	=83	=83	=83
2c#\	.	2e\	.	2cc#\	.	2ee\	.
2d\	.	2f#\	.	2b\	.	2dd\	.
=84	=84	=84	=84	=84	=84	=84	=84
1e	.	1g	.	1a#	.	1cc#	.
=85	=85	=85	=85	=85	=85	=85	=85
1C#	.	1A#	.	1e	.	1gg	.
=86	=86	=86	=86	=86	=86	=86	=86
1D	.	1B	.	1d	.	1ff#	.
=87	=87	=87	=87	=87	=87	=87	=87
1DD#	.	1f#	.	1ccn	.	1aa	.
=88	=88	=88	=88	=88	=88	=88	=88
8EE/L	.	1a	.	[1e 1cc#	.	4.ccc#\	.
8FF#/	.	.	.	.	.	.	.
8GG#/	.	.	.	.	.	.	.
8AA/J	.	.	.	.	.	8bb\	.
8BB/L	.	.	.	.	.	8aa\L	.
8C#/	.	.	.	.	.	8gg#\	.
8D/	.	.	.	.	.	8ff#\	.
8E/J	.	.	.	.	.	8ee\J	.
=89	=89	=89	=89	=89	=89	=89	=89
4EE/	.	4b\	.	4e/] 4dd/	.	8dd\L	.
.	.	.	.	.	.	8cc#\	.
4E\	.	4B/	.	4d/	.	8b\	.
.	.	.	.	.	.	8a\J	.
4E\	.	4B/	.	4d/	.	4g#/	.
4E\	.	4d\	.	4d/	.	4e/	.
=90	=90	=90	=90	=90	=90	=90	=90
4AA/	.	4c#\	.	[1a	p	4a/	.
4r	.	4r	.	.	.	4r	.
(4A\	p	4r	.	.	.	2r	.
4G\	.	8r	.	.	.	.	.
.	.	(24A/LL	p	.	.	.	.
.	.	24B/	.	.	.	.	.
.	.	24c#/JJ	.	.	.	.	.
=91	=91	=91	=91	=91	=91	=91	=91
4F#\	.	4d\	.	1a_	.	1r	.
4E\	.	4e\	.	.	.	.	.
4D\	.	4f#\	.	.	.	.	.
4C#/)	.	4e\)	.	.	.	.	.
=92	=92	=92	=92	=92	=92	=92	=92
(1BB	.	(2d\	.	(4a/]	.	1r	.
.	.	.	.	4g#/	.	.	.
.	.	2G#/	.	4dd\	.	.	.
.	.	.	.	4b\	.	.	.
=93	=93	=93	=93	=93	=93	=93	=93
1E)	.	2B/	.	4a/	.	1r	.
.	.	.	.	4g#/	.	.	.
.	.	2d\)	.	4f#/	.	.	.
.	.	.	.	4e/)	.	.	.
=94	=94	=94	=94	=94	=94	=94	=94
.	.	.	.	.	.	aq\	.
4AA/	.	4c#\	.	4a/	.	[1aa	.
4r	.	4r	.	4r	.	.	.
(4A\	<	4r	.	4r	.	.	.
4G\	.	8r	.	8r	.	.	.
.	.	24A/LL	<	(24a\LL	<	.	.
.	.	24B/	.	24b\	.	.	.
.	.	24c#/JJ	<	24cc#\JJ	<	.	.
=95	=95	=95	=95	=95	=95	=95	=95
4F#\	.	4d\	.	4dd\	.	1aa_	<
4E\	.	4e\	.	4ee\	.	.	.
4D\	.	4f#\	.	4ff#\	.	.	.
4C#/)	.	4e\	.	4ee\)	.	.	.
=96	=96	=96	=96	=96	=96	=96	=96
(1BB	.	2d\	.	[1dd	.	4aa\]	.
.	.	.	.	.	.	(4gg#\	.
.	.	2G#/	.	.	.	4ddd\	.
.	.	.	.	.	.	4bb\	.
=97	=97	=97	=97	=97	=97	=97	=97
1E)	.	2B/	.	2dd\]	.	4aa\	.
.	.	.	.	.	.	4gg#\	.
.	.	2d\	.	2g#/	.	4ff#\	.
.	.	.	.	.	.	4ee\)	.
=98	=98	=98	=98	=98	=98	=98	=98
4AA/	.	4c#\	.	4a/	.	4aa\	.
4r	.	4r	.	(12e/L	p	4r	.
.	.	.	.	12f#/	.	.	.
.	.	.	.	12g#/J	.	.	.
4r	.	4r	.	12a\L	.	2r	.
.	.	.	.	12b\	.	.	.
.	.	.	.	12cc#\J	.	.	.
4E\	p	4B\ 4e\	p	12dd\L	.	.	.
.	.	.	.	12cc#\	.	.	.
.	.	.	.	12b\J)	.	.	.
=99	=99	=99	=99	=99	=99	=99	=99
4A\	.	4c#\ 4e\	.	4a/	.	4r	.
4r	.	4r	.	4r	.	(12ddd\L	p
.	.	.	.	.	.	12ccc#\	.
.	.	.	.	.	.	12bb\J	.
4r	.	4r	.	2r	.	12aa\L	.
.	.	.	.	.	.	12gg#\	.
.	.	.	.	.	.	12ff#\J	.
4E\	.	4d\ 4e\	.	.	.	12ee\L	.
.	.	.	.	.	.	12ff#\	.
.	.	.	.	.	.	12gg#\J)	.
=100	=100	=100	=100	=100	=100	=100	=100
4AA/	.	4c#\ 4e\	.	4r	.	4aa\	.
4r	.	4r	.	(12e/L	.	4r	.
.	.	.	.	12f#/	.	.	.
.	.	.	.	12g#/J	.	.	.
4r	.	4r	.	12a\L	.	2r	.
.	.	.	.	12b\	.	.	.
.	.	.	.	12cc#\J	.	.	.
4E\	.	4B\ 4e\	.	12dd\L	.	.	.
.	.	.	.	12cc#\	.	.	.
.	.	.	.	12b\J)	.	.	.
=101	=101	=101	=101	=101	=101	=101	=101
4A\	.	4c#\ 4e\	.	4a/	.	4r	.
4r	.	4r	.	4r	.	(12ddd\L	.
.	.	.	.	.	.	12ccc#\	.
.	.	.	.	.	.	12bb\J	.
4r	.	4r	.	2r	.	12aa\L	.
.	.	.	.	.	.	12gg#\	.
.	.	.	.	.	.	12ff#\J	.
4E\	.	4d\ 4e\	.	.	.	12ee\L	.
.	.	.	.	.	.	12ff#\	.
.	.	.	.	.	.	12gg#\J)	.
=102	=102	=102	=102	=102	=102	=102	=102
4AA/	<	8c#\L	.	4r	.	(12aa\L	<
.	.	.	.	.	.	12bb\	<
.	.	8e\	<	.	.	.	.
.	.	.	.	.	.	12ccc#\J	.
4E\	.	8B\	<	(12e/L	.	12ddd\L	.
.	.	.	.	12f#/	<	12ccc#\	.
.	.	8e\J	.	.	.	.	.
.	.	.	.	12g#/J	.	12bb\J	.
4EE/	.	8d\L	.	12a\L	.	12aa\L	.
.	.	.	.	12b\	.	12gg#\	.
.	.	8e\	.	.	.	.	.
.	.	.	.	12cc#\J	.	12ff#\J	.
4E\	.	8d\	.	12dd\L	.	12ee\L	.
.	.	.	.	12cc#\	.	12ff#\	.
.	.	8e\J	.	.	.	.	.
.	.	.	.	12b\J)	.	12gg#\J)	.
=103	=103	=103	=103	=103	=103	=103	=103
4AA/	.	8c#\L	.	(12a/L	.	(12aa\L	.
.	.	.	.	12g#/	.	12bb\	.
.	.	8e\	.	.	.	.	.
.	.	.	.	12f#/J	.	12ccc#\J	.
4E\	.	8B\	.	12e/L	.	12ddd\L	.
.	.	.	.	12f#/	.	12ccc#\	.
.	.	8e\J	.	.	.	.	.
.	.	.	.	12g#/J	.	12bb\J	.
4EE/	.	8d\L	.	12a\L	.	12aa\L	.
.	.	.	.	12b\	.	12gg#\	.
.	.	8e\	.	.	.	.	.
.	.	.	.	12cc#\J	.	12ff#\J	.
4E\	.	8d\	.	12dd\L	.	12ee\L	.
.	.	.	.	12cc#\	.	12ff#\	.
.	.	8e\J	.	.	.	.	.
.	.	.	.	12b\J)	.	12gg#\J)	.
=104	=104	=104	=104	=104	=104	=104	=104
4AA/	f	4c#\	f	4a/	.	4aa\	f
4r	.	4r	.	4r	.	4r	.
2r	.	2r	.	2r	.	2r	.
=105	=105	=105	=105	=105	=105	=105	=105
4BB-/	f	4D/	.	4G/	f	4G/ 4g/	f
4r	.	4r	.	4r	.	4r	.
2r	.	2r	.	2r	.	2r	.
=106	=106	=106	=106	=106	=106	=106	=106
4BB/	f	4d\	.	4g/	f	4gg\	f
4r	.	4r	f	4r	.	4r	.
2r	.	2r	.	2r	.	2r	.
=107	=107	=107	=107	=107	=107	=107	=107
*>A1	*>A1	*>A1	*>A1	*>A1	*>A1	*>A1	*>A1
4Cn/	f	4E/	.	4G/	f	4G/ 4g/	f
4r	.	4r	f	4r	.	4r	.
2r	.	2r	.	2r	.	2r	.
=108	=108	=108	=108	=108	=108	=108	=108
4C#/	p	4e\	p	4g/	p	(1a	p
4r	.	4r	.	4r	.	.	.
2r	.	2r	.	2r	.	.	.
=109	=109	=109	=109	=109	=109	=109	=109
1r	.	1r	.	1r	.	1gg)	.
=110:|!	=110:|!	=110:|!	=110:|!	=110:|!	=110:|!	=110:|!	=110:|!
*>A2	*>A2	*>A2	*>A2	*>A2	*>A2	*>A2	*>A2
4C#/	p	4e\	p	4g/	p	(1a	p
4r	.	4r	.	4r	.	.	.
2r	.	2r	.	2r	.	.	.
=111	=111	=111	=111	=111	=111	=111	=111
1r	.	1r	.	1r	.	[1gg)	.
=112	=112	=112	=112	=112	=112	=112	=112
(1D	.	[1A	.	(1fn	.	8gg\L]	.
.	.	.	.	.	.	(8ffn\	.
.	.	.	.	.	.	8ee\	.
.	.	.	.	.	.	8dd\J	.
.	.	.	.	.	.	8cc#\L	.
.	.	.	.	.	.	8dd\	.
.	.	.	.	.	.	8ffn\	.
.	.	.	.	.	.	8dd\J)	.
=113	=113	=113	=113	=113	=113	=113	=113
1E	.	1A_	.	1g	.	4cc#\	.
.	.	.	.	.	.	4r	.
.	.	.	.	.	.	2r	.
=114	=114	=114	=114	=114	=114	=114	=114
1Fn	.	(2A/]	.	1a	.	(8ee\L	.
.	.	.	.	.	.	8dd\	.
.	.	.	.	.	.	8cc#\	.
.	.	.	.	.	.	8dd\J	.
.	.	[2d\)	.	.	.	8ee\L	.
.	.	.	.	.	.	8dd\	.
.	.	.	.	.	.	8ffn\	.
.	.	.	.	.	.	8dd\J)	.
=115	=115	=115	=115	=115	=115	=115	=115
1G	.	1d_	.	1e	.	4b-\	p
.	.	.	.	.	.	4r	.
.	.	.	.	.	.	2r	.
=116	=116	=116	=116	=116	=116	=116	=116
1A)	.	(2d\]	.	1fn)	.	[1a	.
.	.	2D/)	.	.	.	.	.
=117	=117	=117	=117	=117	=117	=117	=117
(1AA	.	(1C#	.	[1e	.	4a/]	.
.	.	.	.	.	.	(8b-/L	.
.	.	.	.	.	.	8a/J)	.
.	.	.	.	.	.	(8a/L	.
.	.	.	.	.	.	8g/	.
.	.	.	.	.	.	8f#/	.
.	.	.	.	.	.	8g/J)	.
=118	=118	=118	=118	=118	=118	=118	=118
1BB-	<	1D)	<	(2e/]	.	[1fn	<
.	.	.	.	2d/)	<	.	.
=119	=119	=119	=119	=119	=119	=119	=119
1FFn	.	[1Cn	<	(2e-/	.	4f/]	<
.	.	.	.	.	.	(8g/L	.
.	.	.	.	.	.	8fn/J)	.
.	.	.	.	[2A/)	.	(8fn/L	.
.	.	.	.	.	.	8e-/	.
.	.	.	.	.	.	8d/	.
.	.	.	.	.	.	8e-/J)	.
=120	=120	=120	=120	=120	=120	=120	=120
1FF#	.	(2C/]	.	2A/]	.	[1d	.
.	.	2A/)	.	2ccn\	.	.	.
=121	=121	=121	=121	=121	=121	=121	=121
1GG)	.	[1G	.	[1b-	.	4d/]	.
.	.	.	.	.	.	(8e-/L	.
.	.	.	.	.	.	8d/J)	.
.	.	.	.	.	.	(8c#/L	.
.	.	.	.	.	.	8d/	.
.	.	.	.	.	.	8e-/	.
.	.	.	.	.	.	8d/J)	.
=122	=122	=122	=122	=122	=122	=122	=122
(2EE-/	f	(2.G/]	f	(2.b-\]	.	[1cn	f
2EE/)	.	.	.	.	.	.	.
.	.	8A/L	.	8a/L	.	.	.
.	.	8B-/J)	.	8g/J)	.	.	.
=123	=123	=123	=123	=123	=123	=123	=123
2FFn/	.	(4A/	.	(4fn/	.	4c/]	.
.	.	4G/	.	4e-/	.	(8d/L	.
.	.	.	.	.	.	8e-/J	.
2FFn/	.	4Fn/	.	4d/	.	4fn/	.
.	.	4E-/)	.	4cn/)	.	8g/L	.
.	.	.	.	.	.	8a/J)	.
=124	=124	=124	=124	=124	=124	=124	=124
4BB-/	.	4D/	.	4B-/	.	4b-\	.
4r	.	4B-/	p	4d/	p	4r	.
2r	.	4d\	.	4fn/	.	4r	.
.	.	4r	.	4r	.	(12ffn\L	p
.	.	.	.	.	.	12dd\	.
.	.	.	.	.	.	12b-\J)	.
=125	=125	=125	=125	=125	=125	=125	=125
1r	.	4r	.	4r	.	2.fn/	.
.	.	(4A/	.	(4e-/	.	.	.
.	.	4B-/)	.	4d/)	.	.	.
.	.	4r	.	4r	.	(12fn/L	.
.	.	.	.	.	.	12b-/	.
.	.	.	.	.	.	12dd/J)	.
=126	=126	=126	=126	=126	=126	=126	=126
4r	.	4r	.	2r	.	[2ffn\	.
(4AA/	p	(4E-/	p	.	.	.	.
4BB-/)	.	4D/)	.	4r	.	8ff\L]	.
.	.	.	.	.	.	8gg\	.
4r	.	4B-/	.	4d/	.	8aa\	.
.	.	.	.	.	.	8bb\J	.
=127	=127	=127	=127	=127	=127	=127	=127
4E-\	.	4r	.	4r	.	(8ff#\L	.
.	.	.	.	.	.	8gg\)	.
4r	.	4B-/	.	4cn/	.	8r	.
.	.	.	.	.	.	8gg\J	.
4Fn\	.	4r	.	4r	.	(8a\L	.
.	.	.	.	.	.	8ffn\)	.
4r	.	4A/	.	4cn/	.	8r	.
.	.	.	.	.	.	8ffn\J	.
=128	=128	=128	=128	=128	=128	=128	=128
4BB-/	.	4r	.	4r	.	(4ee-\	.
4r	.	4B-/	.	4d/	.	4dd\)	.
2r	.	4r	.	2r	.	2r	.
.	.	(12fn\L	.	.	.	.	.
.	.	12d\	.	.	.	.	.
.	.	12B-\J)	.	.	.	.	.
=129	=129	=129	=129	=129	=129	=129	=129
4r	.	2.Fn/	.	2r	.	4r	.
(4AA/	.	.	.	.	.	(12cccn\L	.
.	.	.	.	.	.	12aa\	.
.	.	.	.	.	.	12ee-\J)	.
4BB-/)	.	.	.	4r	.	4dd\	.
4r	.	4r	.	(12fn/L	.	4r	.
.	.	.	.	12b-/	.	.	.
.	.	.	.	12dd/J)	.	.	.
=130	=130	=130	=130	=130	=130	=130	=130
4r	.	2r	.	2.ffn\	.	4r	.
(4A\	.	.	.	.	.	(12ccn/L	.
.	.	.	.	.	.	12a/	.
.	.	.	.	.	.	12e-/J)	.
4B-\)	.	4r	.	.	.	4d/	.
4r	.	(12d/L	.	4r	.	4r	.
.	.	12B-/	.	.	.	.	.
.	.	12G/J)	.	.	.	.	.
=131	=131	=131	=131	=131	=131	=131	=131
4r	.	2.D/	.	2r	.	4r	.
(4FF#/	.	.	.	.	.	(12aa\L	.
.	.	.	.	.	.	12ff#\	.
.	.	.	.	.	.	12ccn\J)	.
4GG/)	.	.	.	4r	.	4b-\	.
4r	.	4r	.	(12d/L	.	4r	.
.	.	.	.	12g/	.	.	.
.	.	.	.	12b-/J)	.	.	.
=132	=132	=132	=132	=132	=132	=132	=132
4r	.	2r	.	[2dd\	.	4r	.
(4F#\	.	.	.	.	.	(12a/L	.
.	.	.	.	.	.	12f#/	.
.	.	.	.	.	.	12cn/J)	.
4G\)	.	4r	.	8dd\L]	.	4B-/	.
.	.	.	.	8ee\	.	.	.
4r	.	4G/	.	8ff#\	.	4B-/	.
.	.	.	.	8gg\J	.	.	.
=133	=133	=133	=133	=133	=133	=133	=133
4Cn/	.	4r	.	(8dd\L	.	4r	.
.	.	.	.	8ee-\	.	.	.
4r	.	4G/	.	8r	.	4A/	.
.	.	.	.	8ee-\J	.	.	.
4D\	.	4r	.	8f#/L	.	4r	.
.	.	.	.	&(8dd/&)	.	.	.
4r	.	4F#/	.	8r	.	4A/	.
.	.	.	.	8dd/J	.	.	.
=134	=134	=134	=134	=134	=134	=134	=134
4GG/	.	4r	.	4ccn\	.	4r	.
4r	.	4G/	<	4b-\)	.	4B-/	.
4BB-/	<	8d\L	<	4r	<	8dd\L	<
.	.	8e\	.	.	.	8ee\	<
4r	.	8f#\	.	4B-/ 4d/	<	8ff#\	.
.	.	8g\J	.	.	.	8gg\J	.
=135	=135	=135	=135	=135	=135	=135	=135
4Cn/	.	(8A\L	.	4r	.	(8a\L	.
.	.	8e-\)	.	.	.	8ee-\)	.
4r	.	8r	.	4cn/	.	8r	.
.	.	8e-\J	.	.	.	8ee-\J	.
4D\	.	(8F#/L	.	4r	.	(8f#/L	.
.	.	8d/)	.	.	.	8dd/)	.
4r	.	8r	.	4A/ 4f#/	.	8r	.
.	.	8d/J	.	.	.	8dd/J	.
=136	=136	=136	=136	=136	=136	=136	=136
1GG	f	(8B-\L	.	(8g/L	f	4g/	f
.	.	8d\	.	8d/	.	.	.
.	.	8B-\	.	8g/	.	4r	.
.	.	8d\J	.	8b-/J	.	.	.
.	.	8B-\L	.	8dd\L	.	2r	.
.	.	8d\	.	8gg\	.	.	.
.	.	8B-\	.	8bb-\	.	.	.
.	.	8d\J)	.	8aa\J)	.	.	.
=137	=137	=137	=137	=137	=137	=137	=137
(1Fn	.	(8A/L	.	(8gg#\L	.	1ddd	.
.	.	8d/	.	8aa\	.	.	.
.	.	8A/	.	8ffn\	.	.	.
.	.	8d/J	.	8ee\J	.	.	.
.	.	8A/L	.	8dd\L	.	.	.
.	.	8d/	.	8ccn\	.	.	.
.	.	8A/	.	8b\	.	.	.
.	.	8d/J)	.	8a\J)	.	.	.
=138	=138	=138	=138	=138	=138	=138	=138
4E\)	.	[1d	.	1g#	.	2.fffn\	.
4r	.	.	.	.	.	.	.
2r	.	.	.	.	.	.	.
.	.	.	.	.	.	(12aa\L	.
.	.	.	.	.	.	12gg#\)	.
.	.	.	.	.	.	12bb\J	.
=139	=139	=139	=139	=139	=139	=139	=139
4r	.	4d\]	.	(2.ffn\	.	12ddd\L	.
.	.	.	.	.	.	12bb\	.
.	.	.	.	.	.	12gg#\J	.
4EE/	.	(4G#/	.	.	.	12ddd\L	.
.	.	.	.	.	.	12bb\	.
.	.	.	.	.	.	12gg#\J	.
4EE/	.	4B/	.	.	.	12ddd\L	.
.	.	.	.	.	.	12bb\	.
.	.	.	.	.	.	12gg#\J	.
4EE/	.	4d\)	.	4ee\)	.	12ddd\L	.
.	.	.	.	.	.	12bb\	.
.	.	.	.	.	.	12gg#\J	.
=140	=140	=140	=140	=140	=140	=140	=140
1AA	.	(8cn\L	.	8ee/L	.	4aa\	.
.	.	8e\	.	(8e/	.	.	.
.	.	8cn\	.	8a/	.	4r	.
.	.	8e\J	.	8ccn/J	.	.	.
.	.	8cn\L	.	8ee\L	.	2r	.
.	.	8e\	.	8aa\	.	.	.
.	.	8cn\	.	8cccn\	.	.	.
.	.	8e\J)	.	8bb\J)	.	.	.
=141	=141	=141	=141	=141	=141	=141	=141
(1G	.	(8B\L	.	(8aa#\L	.	1eee	.
.	.	8e\	.	8bb\	.	.	.
.	.	8B\	.	8gg\	.	.	.
.	.	8e\J	.	8ff#\J	.	.	.
.	.	8B\L	.	8ee\L	.	.	.
.	.	8e\	.	8dd\	.	.	.
.	.	8B\	.	8cc#\	.	.	.
.	.	8e\J)	.	8b\J)	.	.	.
=142	=142	=142	=142	=142	=142	=142	=142
4F#\)	.	[1e	.	1a#	.	2.ggg\	.
4r	.	.	.	.	.	.	.
2r	.	.	.	.	.	.	.
.	.	.	.	.	.	(12bb\L	.
.	.	.	.	.	.	12aa#\	.
.	.	.	.	.	.	12ccc#\J)	.
=143	=143	=143	=143	=143	=143	=143	=143
4r	.	4e\]	.	(2.gg\	.	12eee\L	.
.	.	.	.	.	.	12ccc#\	.
.	.	.	.	.	.	12aa#\J	.
4FF#/	.	(4A#/	.	.	.	12eee\L	.
.	.	.	.	.	.	12ccc#\	.
.	.	.	.	.	.	12aa#\J	.
4FF#/	.	4c#\	.	.	.	12eee\L	.
.	.	.	.	.	.	12ccc#\	.
.	.	.	.	.	.	12aa#\J	.
4FF#/	.	4e\)	.	4ff#\)	.	12eee\L	.
.	.	.	.	.	.	12ccc#\	.
.	.	.	.	.	.	12aa#\J	.
=144	=144	=144	=144	=144	=144	=144	=144
4BB/	.	4d\	.	8ff#/L	.	1bb	f
.	.	.	.	(8d/	.	.	.
4r	.	4r	f	8f#/	.	.	.
.	.	.	.	8b/J	.	.	.
2r	.	[2B\ [2d\	.	8dd\L	.	.	.
.	.	.	.	8ee\	.	.	.
.	.	.	.	8ff#\	.	.	.
.	.	.	.	8ee\J)	.	.	.
=145	=145	=145	=145	=145	=145	=145	=145
1BB	f	2B\] 2d\]	f	(8dd\L	.	1ddd	f
.	.	.	.	8ee\	.	.	.
.	.	.	.	8dd\	.	.	.
.	.	.	.	8ccn\J	.	.	.
.	.	[2B\ [2d\	.	8b\L	.	.	.
.	.	.	.	8ccn\	.	.	.
.	.	.	.	8b\	.	.	.
.	.	.	.	8a\J)	.	.	.
=146	=146	=146	=146	=146	=146	=146	=146
1D	f	2B\] 2d\]	.	8g/L	.	1gg	.
.	.	.	.	(8B/	.	.	.
.	.	.	.	8d/	.	.	.
.	.	.	.	8g/J	.	.	.
.	.	[2B\ [2d\	.	8b\L	.	.	.
.	.	.	.	8ccn\	.	.	.
.	.	.	.	8dd\	.	.	.
.	.	.	.	8ccn\J)	.	.	.
=147	=147	=147	=147	=147	=147	=147	=147
1GG	f	2B\] 2d\]	.	(8b\L	.	1bb	f
.	.	.	.	8ccn\	.	.	.
.	.	.	.	8b\	.	.	.
.	.	.	.	8a\J	.	.	.
.	.	[2B\ [2d\	.	8g/L	.	.	.
.	.	.	.	8a/	.	.	.
.	.	.	.	8g/	.	.	.
.	.	.	.	8f#/J)	.	.	.
=148	=148	=148	=148	=148	=148	=148	=148
1GG#	.	2B\] 2d\]	.	(8e#/L	.	1ee#	f
.	.	.	.	8f#/	.	.	.
.	.	.	.	8g#/	.	.	.
.	.	.	.	8a/J	.	.	.
.	.	[2c#\	.	8b/L	.	.	.
.	.	.	.	8g#/	.	.	.
.	.	.	.	8f#/	.	.	.
.	.	.	.	8e#/J)	.	.	.
=149	=149	=149	=149	=149	=149	=149	=149
1AA	f	2c#\]	.	(8f#/L	.	1ff#	f
.	.	.	.	8g#/	.	.	.
.	.	.	.	8a/	.	.	.
.	.	.	.	8b/J	.	.	.
.	.	[2c#\	.	8cc#\L	.	.	.
.	.	.	.	8dd\	.	.	.
.	.	.	.	8cc#\	.	.	.
.	.	.	.	8b\J)	.	.	.
=150	=150	=150	=150	=150	=150	=150	=150
1FF#	f	2c#\]	.	(8a/L	.	1aa	f
.	.	.	.	8b/	.	.	.
.	.	.	.	8a/	.	.	.
.	.	.	.	8g#/J	.	.	.
.	.	[2A/	.	8f#/L	.	.	.
.	.	.	.	8e/	.	.	.
.	.	.	.	8d/	.	.	.
.	.	.	.	8c#/J)	.	.	.
=151	=151	=151	=151	=151	=151	=151	=151
1DD	f	2A/]	.	8B#/L	.	1b#	f
.	.	.	.	(8f#/	.	.	.
.	.	.	.	8a/	.	.	.
.	.	.	.	8g#/J	.	.	.
.	.	2F#/	.	8f#/L	.	.	.
.	.	.	.	8g#/	.	.	.
.	.	.	.	8a/	.	.	.
.	.	.	.	8f#/J)	.	.	.
=152	=152	=152	=152	=152	=152	=152	=152
4CC#/	.	4G#/	.	4e#/	.	4cc#\	.
(2C#/	.	4r	.	4r	.	4r	.
.	.	[2C#/ [2c#/	.	2e#/	.	[2ccc#\	.
4BB/)	.	.	.	.	.	.	.
=153	=153	=153	=153	=153	=153	=153	=153
(4AA/	.	1C#_ 1c#_	.	12f#/L	.	2ccc#\_	.
.	.	.	.	12f#/	.	.	.
.	.	.	.	12f#/J	.	.	.
4GG#/	.	.	.	12g#/L	.	.	.
.	.	.	.	12g#/	.	.	.
.	.	.	.	12g#/J	.	.	.
4FF#/	.	.	.	12a/L	.	(12ccc#\L]	.
.	.	.	.	12a/	.	12ddd\	.
.	.	.	.	12a/J	.	12ccc#\J	.
4DD/)	.	.	.	12f#/L	.	12bb#\L	.
.	.	.	.	12f#/	.	12ccc#\	.
.	.	.	.	12f#/J	.	12bb#\J)	.
=154	=154	=154	=154	=154	=154	=154	=154
4CC#/	.	4C#/] 4c#/]	.	4e#/	.	4ccc#\	.
(2C#/	.	4r	.	4r	.	4r	.
.	.	[2C#/ [2c#/	.	12e#/L	.	[2ccc#\	.
.	.	.	.	12ee#/	.	.	.
.	.	.	.	12ee#/J	.	.	.
4BB/)	.	.	.	12ee#\L	.	.	.
.	.	.	.	12ee#\	.	.	.
.	.	.	.	12ee#\J	.	.	.
=155	=155	=155	=155	=155	=155	=155	=155
(4AA/	.	1C#] 1c#]	.	12ff#\L	.	2ccc#\_	.
.	.	.	.	12ff#\	.	.	.
.	.	.	.	12ff#\J	.	.	.
4GG#/	.	.	.	12gg#\L	.	.	.
.	.	.	.	12gg#\	.	.	.
.	.	.	.	12gg#\J	.	.	.
4FF#/	.	.	.	12aa\L	.	12ccc#\L]	.
.	.	.	.	12aa\	.	12ddd\	.
.	.	.	.	12aa\J	.	12ccc#\J	.
4DD/)	.	.	.	12ff#\L	.	12bb#\L	.
.	.	.	.	12ff#\	.	12ccc#\	.
.	.	.	.	12ff#\J	.	12bb#\J	.
=156	=156	=156	=156	=156	=156	=156	=156
12CC#/L	ff	12C#/L 12c#/	.	12ee#/L	ff	12ccc#\L	ff
12CC#/	.	12C#/ 12c#/	.	12e#/ 12cc#/	.	12ccc#\	.
12CC#/J	.	12C#/J 12c#/	.	12e#/J 12cc#/	.	12ccc#\J	.
12CC#/L	.	12C#/L 12c#/	.	12e#/L 12cc#/	.	12ccc#\L	.
12CC#/	.	12C#/ 12c#/	.	12e#/ 12cc#/	.	12ccc#\	.
12CC#/J	.	12C#/J 12c#/	.	12e#/J 12cc#/	.	12ccc#\J	.
12CC#/L	.	12C#/L 12c#/	.	12e#/L 12cc#/	.	12ccc#\L	.
12CC#/	.	12C#/ 12c#/	.	12e#/ 12cc#/	.	12ccc#\	.
12CC#/J	.	12C#/J 12c#/	.	12e#/J 12cc#/	.	12ccc#\J	.
12CC#/L	.	12C#/L 12c#/	.	12e#/L 12cc#/	.	12ccc#\L	.
12CC#/	.	12C#/ 12c#/	.	12e#/ 12cc#/	.	12ccc#\	.
12CC#/J	.	12C#/J 12c#/	.	12e#/J 12cc#/	.	12ccc#\J	.
=157	=157	=157	=157	=157	=157	=157	=157
12CC#/L	.	12C#/L 12c#/	.	12e#/L 12cc#/	.	12eee#\L	.
12CC#/	.	12C#/ 12c#/	.	12e#/ 12cc#/	.	12eee#\	.
12CC#/J	.	12C#/J 12c#/	.	12e#/J 12cc#/	.	12eee#\J	.
12CC#/L	.	12C#/L 12c#/	.	12e#/L 12cc#/	.	12eee#\L	.
12CC#/	.	12C#/ 12c#/	.	12e#/ 12cc#/	.	12eee#\	.
12CC#/J	.	12C#/J 12c#/	.	12e#/J 12cc#/	.	12eee#\J	.
12CC#/L	.	12C#/L 12c#/	.	12e#/L 12cc#/	.	12ggg#\L	.
12CC#/	.	12C#/ 12c#/	.	12e#/ 12cc#/	.	12ggg#\	.
12CC#/J	.	12C#/J 12c#/	.	12e#/J 12cc#/	.	12ggg#\J	.
12CC#/L	.	12C#/L 12c#/	.	12e#/L 12cc#/	.	12ggg#\L	.
12CC#/	.	12C#/ 12c#/	.	12e#/ 12cc#/	.	12ggg#\	.
12CC#/J	.	12C#/J 12c#/	.	12e#/J 12cc#/	.	12ggg#\J	.
=158	=158	=158	=158	=158	=158	=158	=158
[1CC#	p	[1C#	.	4e#/ 4cc#/	.	4cccc#\	.
.	.	.	.	4r	.	4r	.
.	.	.	.	2r	.	2r	.
=159	=159	=159	=159	=159	=159	=159	=159
1CC#_	<	1C#_	p	1r	.	1r	.
=160	=160	=160	=160	=160	=160	=160	=160
1CC#_	>	1C#_	>	(1A	pp	1r	.
=161	=161	=161	=161	=161	=161	=161	=161
1CC#]	.	1C#]	.	[1g)	.	1r	.
=162	=162	=162	=162	=162	=162	=162	=162
(2DD/	.	(2D/	.	8g/L]	.	(1a	p
.	.	.	.	(8f#/	.	.	.
.	.	.	.	8e/	.	.	.
.	.	.	.	8d/J	.	.	.
2D\)	.	[2A/)	.	8c#/L	.	.	.
.	.	.	.	8d/	.	.	.
.	.	.	.	8f#/	.	.	.
.	.	.	.	8d/J)	.	.	.
=163	=163	=163	=163	=163	=163	=163	=163
(1E	.	1A_	.	(1c#	.	[1gg)	.
=164	=164	=164	=164	=164	=164	=164	=164
1F#	.	1A]	.	[1d)	.	(8gg\L]	.
.	.	.	.	.	.	8ff#\	.
.	.	.	.	.	.	8ee\	.
.	.	.	.	.	.	8dd\J	.
.	.	.	.	.	.	8cc#\L	.
.	.	.	.	.	.	8dd\	.
.	.	.	.	.	.	8ff#\	.
.	.	.	.	.	.	8dd\J)	.
=165	=165	=165	=165	=165	=165	=165	=165
1G)	.	(1B	.	1d_	.	(8cc#\L	.
.	.	.	.	.	.	8b\	.
.	.	.	.	.	.	8a#\	.
.	.	.	.	.	.	8b\J	.
.	.	.	.	.	.	8cc#\L	.
.	.	.	.	.	.	8b\	.
.	.	.	.	.	.	8dd\	.
.	.	.	.	.	.	8b\J)	.
=166	=166	=166	=166	=166	=166	=166	=166
(1A	.	1F#)	.	(1d]	.	[1a	.
=167	=167	=167	=167	=167	=167	=167	=167
1AA)	.	1E	.	1c#)	.	4a/]	.
.	.	.	.	.	.	(8b/L	.
.	.	.	.	.	.	8a/J)	.
.	.	.	.	.	.	(8a/L	.
.	.	.	.	.	.	8g/	.
.	.	.	.	.	.	8f#/	.
.	.	.	.	.	.	8g/J)	.
=168	=168	=168	=168	=168	=168	=168	=168
.	.	.	.	.	.	(f#q\	.
.	.	.	.	.	.	gq\)	.
.	.	.	.	.	.	aq\)	.
(1AA#	.	(1C#	.	(1e	.	1g	.
=169	=169	=169	=169	=169	=169	=169	=169
1BB)	.	1D)	.	4d/)	.	4f#/	.
.	.	.	.	4r	.	4r	.
.	.	.	.	2r	.	2r	.
=170	=170	=170	=170	=170	=170	=170	=170
(1Cn	<	(1D	.	1r	.	1r	.
=171	=171	=171	=171	=171	=171	=171	=171
(1FF#)	.	[1cn)	<	1r	.	1r	.
=172	=172	=172	=172	=172	=172	=172	=172
(1GG)	.	8c/L]	<	(1d	.	1r	.
.	.	(8B/	.	.	.	.	.
.	.	8A/	.	.	.	.	.
.	.	8G/J	.	.	.	.	.
.	.	8F#/L	.	.	.	.	.
.	.	8G/	.	.	.	.	.
.	.	8B/	.	.	.	.	.
.	.	8G/J)	.	.	.	.	.
=173	=173	=173	=173	=173	=173	=173	=173
1AA	.	(1F#	.	[1ccn)	<	1r	.
=174	=174	=174	=174	=174	=174	=174	=174
1BB)	.	1G)	.	8cc/L]	.	1dd	<
.	.	.	.	(8b/	.	.	.
.	.	.	.	&(8a/&))	.	.	.
.	.	.	.	8g/J	.	.	.
.	.	.	.	8f#/L	.	.	.
.	.	.	.	8g/	.	.	.
.	.	.	.	8b/	.	.	.
.	.	.	.	8g/J	.	.	.
=175	=175	=175	=175	=175	=175	=175	=175
1BB	.	1G#	.	1d	.	(1ffn	<
=176	=176	=176	=176	=176	=176	=176	=176
1Cn	p	1E	.	[1a	.	&((8ffn\L&)	p
.	.	.	.	.	.	8ee\	.
.	.	.	.	.	.	8dd#\	.
.	.	.	.	.	.	8ee\J	.
.	.	.	.	.	.	8dd#\L	.
.	.	.	.	.	.	8ee\	.
.	.	.	.	.	.	8ff#\	.
.	.	.	.	.	.	8ee\J)	.
=177	=177	=177	=177	=177	=177	=177	=177
1C#	.	1e	p	8a/L]	p	1gg	.
.	.	.	.	(8a#/	.	.	.
.	.	.	.	8b/	.	.	.
.	.	.	.	8a#/J	.	.	.
.	.	.	.	8b/L	.	.	.
.	.	.	.	8a#/	.	.	.
.	.	.	.	8b/	.	.	.
.	.	.	.	8a#/J)	.	.	.
=178	=178	=178	=178	=178	=178	=178	=178
1D	p	1F#	p	[1b	p	&((8gg\L&)	p
.	.	.	.	.	.	8ff#\	.
.	.	.	.	.	.	8ee#\	.
.	.	.	.	.	.	8ff#\J	.
.	.	.	.	.	.	8ee#\L	.
.	.	.	.	.	.	8ff#\	.
.	.	.	.	.	.	8gg\	.
.	.	.	.	.	.	8ff#\J)	.
=179	=179	=179	=179	=179	=179	=179	=179
1D#	.	1f#	.	8b\L]	.	1aa	.
.	.	.	.	(8ccn\	.	.	.
.	.	.	.	8b\	.	.	.
.	.	.	.	8ccn\J	.	.	.
.	.	.	.	8b\L	.	.	.
.	.	.	.	8ccn\	.	.	.
.	.	.	.	8dd\	.	.	.
.	.	.	.	8ccn\J)	.	.	.
=180	=180	=180	=180	=180	=180	=180	=180
(1E	p	(2c#\	p	2b-\	p	&((8aa\L&)	p
.	.	.	.	.	.	8gg\	.
.	.	.	.	.	.	8ff#\	.
.	.	.	.	.	.	8gg\J	.
.	.	2G/)	<	[2ee\	<	8ff#\L	<
.	.	.	.	.	.	8gg\	<
.	.	.	.	.	.	8aa\	.
.	.	.	.	.	.	8gg\J)	.
=181	=181	=181	=181	=181	=181	=181	=181
1F#	<	(2A/	.	8ee\L]	<	8gg\L	.
.	.	.	.	(8dd\	.	8ff#\	.
.	.	.	.	8cc#\	.	8ee#\	.
.	.	.	.	8dd\J	.	8ff#\J	.
.	.	2d\)	.	8cc#\L	.	8ee#\L	.
.	.	.	.	8dd\	.	8ff#\	.
.	.	.	.	8ee\	.	8gg\	.
.	.	.	.	8dd\J)	.	8ff#\J)	.
=182	=182	=182	=182	=182	=182	=182	=182
1G)	.	(2B-/	.	(8dd\L	.	(8ff#\L	.
.	.	.	.	8cc#\	.	8ee\	.
.	.	.	.	8b#\	.	8dd#\	.
.	.	.	.	8cc#\J	.	8ee\J	.
.	.	2g\)	.	8b#\L	.	8dd#\L	.
.	.	.	.	8cc#\	.	8ee\	.
.	.	.	.	8dd\	.	8ff#\	.
.	.	.	.	8cc#\J)	.	8ee\J)	.
=183	=183	=183	=183	=183	=183	=183	=183
1G#	.	(2B/	.	(8cc#\L	.	(8ee\L	.
.	.	.	.	8b\	.	8dd\	.
.	.	.	.	8a#\	.	8cc#\	.
.	.	.	.	8b\J	.	8dd\J	.
.	.	2fn\)	.	8a#\L	.	8cc#\L	.
.	.	.	.	8b\	.	8dd\	.
.	.	.	.	8cc#\	.	8ee\	.
.	.	.	.	8b\J)	.	8dd\J)	.
=184	=184	=184	=184	=184	=184	=184	=184
8AA\L	p	4e\	p	4a/	p	2.cc#\	p
8A\	.	.	.	.	.	.	.
8G\	.	4r	.	4r	.	.	.
8F#\J	.	.	.	.	.	.	.
8E/L	.	2r	.	2r	.	.	.
8D/	.	.	.	.	.	.	.
8C#/	.	.	.	.	.	8r	.
8BB/J	.	.	.	.	.	(16a/LL	.
.	.	.	.	.	.	16b/JJ)	.
=185	=185	=185	=185	=185	=185	=185	=185
8AA\L	.	1r	.	2.a/	.	2.cc#\	.
8A\	.	.	.	.	.	.	.
8G\	.	.	.	.	.	.	.
8F#\J	.	.	.	.	.	.	.
8E/L	.	.	.	.	.	.	.
8D/	.	.	.	.	.	.	.
8C#/	.	.	.	8r	.	8r	.
8BB/J	.	.	.	(16a/LL	.	(16cc#\LL	.
.	.	.	.	16b/JJ)	.	16dd\JJ)	.
=186	=186	=186	=186	=186	=186	=186	=186
8AA\L	.	1r	.	2.cc#\	.	2.ee\	.
8A\	.	.	.	.	.	.	.
8G\	.	.	.	.	.	.	.
8F#\J	.	.	.	.	.	.	.
8E/L	.	.	.	.	.	.	.
8D/	.	.	.	.	.	.	.
8C#/	.	.	.	8r	.	8r	.
8BB/J	.	.	.	(16cc#\LL	.	(16ee\LL	.
.	.	.	.	16dd\JJ)	.	16ff#\JJ)	.
=187	=187	=187	=187	=187	=187	=187	=187
8AA/L	.	1r	.	4ee\	.	4gg\	.
8BB/	.	.	.	.	.	.	.
8C#/	.	.	.	4ee\	.	4gg\	.
8D/J	.	.	.	.	.	.	.
8E\L	.	.	.	4ee\	.	4gg\	.
8F#\	.	.	.	.	.	.	.
8G\	.	.	.	4ee\	.	4gg\	.
8G#\J	.	.	.	.	.	.	.
=188	=188	=188	=188	=188	=188	=188	=188
8A\L	<	2c#\	.	2ee\	<	2gg\	<
8A#\	.	.	.	.	.	.	.
8B\	.	.	.	.	.	.	.
8A#\J	.	.	.	.	.	.	.
8B\L	.	2d\	<	2dd\	.	2ff#\	<
8A\	.	.	.	.	.	.	.
8G\	.	.	.	.	.	.	.
8F#\J	.	.	.	.	.	.	.
=189	=189	=189	=189	=189	=189	=189	=189
8G\L	.	2d\	.	2b\	.	2ee\	.
8E\	.	.	.	.	.	.	.
8F#\	.	.	.	.	.	.	.
8G\J	.	.	.	.	.	.	.
8A\L	.	2c#\	.	2g/	.	2a/	.
8G\	.	.	.	.	.	.	.
8F#\	.	.	.	.	.	.	.
8E\J	.	.	.	.	.	.	.
=190	=190	=190	=190	=190	=190	=190	=190
4D\	.	4d\	p	4f#/	.	8dd\L	p
.	.	.	.	.	.	(8aa\	.
4r	p	4r	.	4r	.	8gg#\	.
.	.	.	.	.	.	8aa\J	.
2r	.	2r	.	2r	.	8gg\L	.
.	.	.	.	.	.	8ff#\	.
.	.	.	.	.	.	8ee\	.
.	.	.	.	.	.	8dd\J)	.
=191	=191	=191	=191	=191	=191	=191	=191
2.AA/	.	2.A/	.	2r	.	8cc#\L	.
.	.	.	.	.	.	8aa\	.
.	.	.	.	.	.	8gg\	.
.	.	.	.	.	.	8ff#\J	.
.	.	.	.	2A/ 2a/	.	8ee\L	.
.	.	.	.	.	.	8dd\	.
8r	.	8r	.	.	.	8cc#\	.
(16AA/LL	.	(16C#/LL	.	.	.	8b\J	.
16BB/JJ)	.	16D/JJ)	.	.	.	.	.
=192	=192	=192	=192	=192	=192	=192	=192
2.C#/	.	2.E/	.	2r	.	8a\L	.
.	.	.	.	.	.	8aa\	.
.	.	.	.	.	.	8gg\	.
.	.	.	.	.	.	8ff#\J	.
.	.	.	.	2A/ 2a/	.	8ee\L	.
.	.	.	.	.	.	8dd\	.
8r	.	8r	.	.	.	8cc#\	.
(16C#/LL	.	(16E/LL	.	.	.	8b\J	.
16D/JJ)	.	16F#/JJ)	.	.	.	.	.
=193	=193	=193	=193	=193	=193	=193	=193
2.E\	.	2.G/	.	2r	.	8a\L	.
.	.	.	.	.	.	8aa\	.
.	.	.	.	.	.	8gg\	.
.	.	.	.	.	.	8ff#\J	.
.	.	.	.	2A/ 2a/	.	8ee\L	.
.	.	.	.	.	.	8dd\	.
8r	.	8r	.	.	.	8cc#\	.
(16E\LL	.	(16c#\LL	.	.	.	8b\J	.
16F#\JJ)	.	16d\JJ)	.	.	.	.	.
=194	=194	=194	=194	=194	=194	=194	=194
4G\	>	4e\	>	1r	>	8a\L	.
.	.	.	.	.	.	8aa\	.
4G\	.	4e\	.	.	.	8gg\	.
.	.	.	.	.	.	8ff#\J	.
4G\	.	4e\	.	.	.	8ee\L	.
.	.	.	.	.	.	8dd\	.
4G\	.	4e\	.	.	.	8cc#\	.
.	.	.	.	.	.	8b\J	.
=195	=195	=195	=195	=195	=195	=195	=195
2.G\	.	2.e\	.	1r	.	8a#\L	.
.	.	.	.	.	.	8aa\	.
.	.	.	.	.	.	8gg\	.
.	.	.	.	.	.	8ff#\J	.
.	.	.	.	.	.	8ee\L	.
.	.	.	.	.	.	8dd\	.
8r	.	8r	.	.	.	8cc#\	.
(16c#\LL	.	(16e\LL	.	.	.	8b\J	.
16d\JJ)	.	16f#\JJ)	.	.	.	.	.
=196	=196	=196	=196	=196	=196	=196	=196
4e\	.	4g\	.	1r	.	8a#\L	.
.	.	.	.	.	.	8aa\	.
4e\	.	4g\	.	.	.	8gg\	.
.	.	.	.	.	.	8ff#\J	.
4e\	.	4g\	.	.	.	8ee\L	.
.	.	.	.	.	.	8dd\	.
4e\	.	4g\	.	.	.	8cc#\	.
.	.	.	.	.	.	8b\J	.
=197	=197	=197	=197	=197	=197	=197	=197
[1e	pp	[1g	pp	1r	.	4b-\	.
.	.	.	.	.	.	(8gg\L	.
.	.	.	.	.	.	8ffn\J	.
.	.	.	.	.	.	8ee\L	.
.	.	.	.	.	.	8dd\	.
.	.	.	.	.	.	8ccn\	.
.	.	.	.	.	.	8b\J)	.
=198	=198	=198	=198	=198	=198	=198	=198
1e_	.	1g_	.	1r	.	4b-\	.
.	.	.	.	.	.	(8gg\L	.
.	.	.	.	.	.	8ffn\J	.
.	.	.	.	.	.	8ee\L	.
.	.	.	.	.	.	8dd\	.
.	.	.	.	.	.	8ccn\	.
.	.	.	.	.	.	8b\J)	.
=199	=199	=199	=199	=199	=199	=199	=199
1e_	<	1g_	<	1r	.	(8b-\L	<
.	.	.	.	.	.	8ccn\	<
.	.	.	.	.	.	8b-\	.
.	.	.	.	.	.	8a\J	.
.	.	.	.	.	.	8b-\L	.
.	.	.	.	.	.	8ccn\	.
.	.	.	.	.	.	8b-\	.
.	.	.	.	.	.	8a\J)	.
=200	=200	=200	=200	=200	=200	=200	=200
1e]	.	1g]	<	1cn	<	8b-\L	.
.	.	.	.	.	.	8ccn\	.
.	.	.	.	.	.	8dd\	.
.	.	.	.	.	.	8ccn\J	.
.	.	.	.	.	.	8ee\L	.
.	.	.	.	.	.	8dd\	.
.	.	.	.	.	.	8ccn\	.
.	.	.	.	.	.	8b-\J	.
=201	=201	=201	=201	=201	=201	=201	=201
4fn\	p	4fn\	p	4cn/	<	4a/	p
2Fn\	.	2cn\	.	2fn/	.	(2a/	.
(4Fn\	.	4cn\	.	(4fn/	.	8b-/L	.
.	.	.	.	.	.	8a/J)	.
=202	=202	=202	=202	=202	=202	=202	=202
4B-\)	.	4cn\	.	4e/	.	4g/	.
2B-\	.	2c\	.	2e/	.	[4ccn\	.
.	.	.	.	.	.	8ccn/L]	.
.	.	.	.	.	.	(8b-/	.
(4B-\	.	[4c\	.	4e/	.	8a/	.
.	.	.	.	.	.	8g/J)	.
=203	=203	=203	=203	=203	=203	=203	=203
4A\)	.	4c\]	.	4fn/)	.	4fn/	.
(4A\	.	[4cn\	.	[4cn/	.	(4fn/	.
4E\)	.	4cn\]	.	4cn/]	.	4g/	.
(4E\	.	[4cn\	.	[4cn/	.	4g/	.
=204	=204	=204	=204	=204	=204	=204	=204
4Fn\)	.	4c\]	.	4c/]	.	4a/	.
(4Fn\	.	[4cn\	.	(4fn/	.	4a/	.
4Cn/)	.	4cn\]	.	4e/	.	4g/	.
(4Cn/	.	(4cn\	.	4e/	.	4g/	.
=205	=205	=205	=205	=205	=205	=205	=205
4D\)	.	4d\)	.	4A/	.	4fn/	.
2D\	.	2A/	.	2d/	.	2fn/	.
(4D\	.	4A/	.	4d/	.	8g/L	.
.	.	.	.	.	.	&(8fn/J&)	.
=206	=206	=206	=206	=206	=206	=206	=206
4G\)	.	4A/	.	4c#/	.	4e/	.
2G\	.	2A/	.	2c#/	.	[4a/	.
.	.	.	.	.	.	8a/L]	.
.	.	.	.	.	.	8g/	.
(4G\	.	[4A/	.	4c#/	.	8fn/	.
.	.	.	.	.	.	8e/J)	.
=207	=207	=207	=207	=207	=207	=207	=207
4Fn\)	.	4A/]	.	4d/	.	4d/	.
(4Fn\	.	[4d\	.	4a/	.	(4dd\	.
4B-\)	.	4d\]	.	4g/	.	4ee\	.
(4B-\	.	[4d\	.	4g/	.	4ee\	.
=208	=208	=208	=208	=208	=208	=208	=208
4A\)	.	4d\]	.	4a/)	.	4ffn\	.
4r	.	(4d\	.	[4a/	.	4ffn\	.
4AA/	.	4c#\)	.	4a/]	.	&(4ee\&)	.
4r	.	4c#\	.	4a/	.	4ee\	.
=209	=209	=209	=209	=209	=209	=209	=209
2DD/	f	2D/ 2d/	.	2ff#\	f	2aa\	f
4FF#/	.	4D/	.	4dd\	.	4ff#\	.
4AA/	.	4D/	.	4a/	.	4dd\	.
=210	=210	=210	=210	=210	=210	=210	=210
2D\	.	2F#/	.	2f#/	.	2a/	.
2E\	.	2G/	.	2e/	.	2g/	.
=211	=211	=211	=211	=211	=211	=211	=211
1F#	.	1A	.	1d#	.	1f#	.
=212	=212	=212	=212	=212	=212	=212	=212
1G#	.	[1B	.	[1d	.	1fn	.
=213	=213	=213	=213	=213	=213	=213	=213
1A	<	4B/]	.	(4d/]	.	4e/	.
.	.	(4A/	<	4c#/	.	8f#/L	<
.	.	.	.	.	.	8g/J	<
.	.	4c#\	<	4ee\	<	8a\L	.
.	.	.	.	.	.	8b\	.
.	.	4B/	.	4dd\	<	8cc#\	.
.	.	.	.	.	.	8dd\J	.
=214	=214	=214	=214	=214	=214	=214	=214
1AA	<	4A/	.	4cc#\	.	8ee\L	.
.	.	.	.	.	.	8ff#\	.
.	.	4G/	.	4b\	.	8gg\	.
.	.	.	.	.	.	8aa\J	.
.	.	4F#/	.	4a/	.	8bb\L	.
.	.	.	.	.	.	8ccc#\	.
.	.	4E/)	.	4g/)	.	8ddd\	.
.	.	.	.	.	.	8eee\J	.
=215	=215	=215	=215	=215	=215	=215	=215
4DD/	ff	4D/	ff	4f#/	.	4fff#\	ff
4D\	.	4F#/	.	4aa\	.	4fff#\	.
4F#\	.	4A/	.	4aa\	.	4ddd\	.
4A\	.	4d\	.	4ff#\	.	4aa\	.
=216	=216	=216	=216	=216	=216	=216	=216
2d\	.	2f#\	.	2dd\	.	2ff#\	.
2e\	.	2g\	.	2cc#\	.	2ee\	.
=217	=217	=217	=217	=217	=217	=217	=217
1f#	.	1a	.	1ccn	.	1dd#	.
=218	=218	=218	=218	=218	=218	=218	=218
1F#	.	1A	.	1dd#	.	1cccn	.
=219	=219	=219	=219	=219	=219	=219	=219
1G	.	1B	.	1ee	.	1bb	.
=220	=220	=220	=220	=220	=220	=220	=220
1GG#	.	1B	.	1ffn	.	1ddd	.
=221	=221	=221	=221	=221	=221	=221	=221
8AA/L	.	4d\	.	4ff#\	.	4.fff#\	.
8BB/	.	.	.	.	.	.	.
8C#/	.	4d\	.	4A/ 4f#/	.	.	.
8D/J	.	.	.	.	.	8eee\	.
8E\L	.	4d\	.	4A/ 4f#/	.	8ddd\L	.
8F#\	.	.	.	.	.	8ccc#\	.
8G\	.	4d\	.	4A/ 4f#/	.	8bb\	.
8A\J	.	.	.	.	.	8aa\J	.
=222	=222	=222	=222	=222	=222	=222	=222
4AA/	.	2.e\	.	2.A/ 2.g/	.	8gg\L	.
.	.	.	.	.	.	8ff#\	.
4A\	.	.	.	.	.	8ee\	.
.	.	.	.	.	.	8dd\J	.
4A\	.	.	.	.	.	4cc#\	.
4A\	.	4g\	.	4cc#\	.	4a/	.
=223	=223	=223	=223	=223	=223	=223	=223
4D\	.	4f#\	.	[1dd	p	4dd\	.
4r	.	4r	.	.	.	4r	.
(4d\	p	4r	.	.	.	2r	.
4cn\	.	8r	.	.	.	.	.
.	.	(24d\LL	p	.	.	.	.
.	.	24e\	.	.	.	.	.
.	.	24f#\JJ	.	.	.	.	.
=224	=224	=224	=224	=224	=224	=224	=224
4B\	.	4g\	.	1dd_	.	1r	.
4A\	.	4a\	.	.	.	.	.
4G\	.	4b\	.	.	.	.	.
4F#\)	.	4a\)	.	.	.	.	.
=225	=225	=225	=225	=225	=225	=225	=225
(1E	.	(2g\	.	4dd\]	.	1r	.
.	.	.	.	(4cc#\	.	.	.
.	.	2c#\	.	4gg\	.	.	.
.	.	.	.	4ee\	.	.	.
=226	=226	=226	=226	=226	=226	=226	=226
1A)	.	2e\	.	4dd\	.	1r	.
.	.	.	.	4cc#\	.	.	.
.	.	2g\)	.	4b\	.	.	.
.	.	.	.	4a/)	.	.	.
=227	=227	=227	=227	=227	=227	=227	=227
.	.	.	.	.	.	ddq\	.
4D\	.	4f#\	.	4dd\	.	[1ddd	.
4r	.	4r	.	4r	.	.	.
(4D\	<	(2D/ [2d/	.	4r	.	.	.
4Cn/	<	.	.	8r	.	.	.
.	.	.	.	(24dd\LL	<	.	.
.	.	.	.	24ee\	.	.	.
.	.	.	.	24ff#\JJ)	.	.	.
=228	=228	=228	=228	=228	=228	=228	=228
*	*	*^	*	*	*	*	*
4BB/	.	4d/])	1D	<	(4gg\	.	1ddd_	<
4AA/	.	(4cn/	.	.	4aa\	.	.	.
4GG/	.	4B/	.	.	4bb\	.	.	.
4FF#/)	.	4d/)	.	.	4aa\)	.	.	.
*	*	*v	*v	*	*	*	*	*
=229	=229	=229	=229	=229	=229	=229	=229
(1EE	.	4g\	.	[1gg	.	4ddd\]	.
.	.	4r	.	.	.	4ccc#\	.
.	.	(2C#/	.	.	.	4ggg\	.
.	.	.	.	.	.	4eee\	.
=230	=230	=230	=230	=230	=230	=230	=230
1AA)	.	2E/	.	(2gg\]	.	4ddd\	.
.	.	.	.	.	.	4ccc#\	.
.	.	2G/)	.	2cc#\)	.	4bb\	.
.	.	.	.	.	.	4aa\)	.
=231	=231	=231	=231	=231	=231	=231	=231
4DD/	.	4F#/	.	4dd\	.	4ddd\	.
4r	.	4r	.	(12a\L	p	4r	.
.	.	.	.	12b\	.	.	.
.	.	.	.	12cc#\J	.	.	.
4r	.	4r	.	12dd\L	.	2r	.
.	.	.	.	12ee\	.	.	.
.	.	.	.	12ff#\J	.	.	.
4A\	p	4e\ 4a\	p	12gg\L	.	.	.
.	.	.	.	12ff#\	.	.	.
.	.	.	.	12ee\J)	.	.	.
=232	=232	=232	=232	=232	=232	=232	=232
4d\	.	4f#\ 4a\	.	4dd\	.	4r	.
4r	.	4r	.	4r	.	(12ggg\L	p
.	.	.	.	.	.	12fff#\	.
.	.	.	.	.	.	12eee\J	.
4r	.	4r	.	2r	.	12ddd\L	.
.	.	.	.	.	.	12ccc#\	.
.	.	.	.	.	.	12bb\J	.
4A\	.	4g\ 4a\	.	.	.	12aa\L	.
.	.	.	.	.	.	12bb\	.
.	.	.	.	.	.	12ccc#\J)	.
=233	=233	=233	=233	=233	=233	=233	=233
4D\	.	4f#\ 4a\	.	4r	.	4fff#\	.
4r	.	4r	.	12a\L	.	4r	.
.	.	.	.	12b\	.	.	.
.	.	.	.	12cc#\J	.	.	.
4r	.	4r	.	12dd\L	.	2r	.
.	.	.	.	12ee\	.	.	.
.	.	.	.	12ff#\J	.	.	.
4A\	.	4e\ 4a\	.	12gg\L	.	.	.
.	.	.	.	12ff#\	.	.	.
.	.	.	.	12ee\J	.	.	.
=234	=234	=234	=234	=234	=234	=234	=234
4d\	.	4f#\ 4a\	.	4dd\	.	4r	.
4r	.	4r	.	4r	.	(12ggg\L	.
.	.	.	.	.	.	12fff#\	.
.	.	.	.	.	.	12eee\J	.
4r	.	4r	.	2r	.	12ddd\L	.
.	.	.	.	.	.	12ccc#\	.
.	.	.	.	.	.	12bb\J	.
4A\	.	4g\ 4a\	.	.	.	12aa\L	.
.	.	.	.	.	.	12bb\	.
.	.	.	.	.	.	12ccc#\J)	.
=235	=235	=235	=235	=235	=235	=235	=235
4D\	<	8f#\L	<	4r	.	(12ddd\L	<
.	.	.	.	.	.	12eee\	<
.	.	8a\	.	.	.	.	.
.	.	.	.	.	.	12fff#\J	.
4A\	<	8e\	<	12a\L	.	12ggg\L	.
.	.	.	.	12b\	.	12fff#\	.
.	.	8a\J	.	.	.	.	.
.	.	.	.	12cc#\J	.	12eee\J	.
4AA/	.	8g\L	.	12dd\L	.	12ddd\L	.
.	.	.	.	12ee\	.	12ccc#\	.
.	.	8a\	.	.	.	.	.
.	.	.	.	12ff#\J	.	12bb\J	.
4A\	.	8g\	.	12gg\L	.	12aa\L	.
.	.	.	.	12ff#\	.	12bb\	.
.	.	8a\J	.	.	.	.	.
.	.	.	.	12ee\J	.	12ccc#\J)	.
=236	=236	=236	=236	=236	=236	=236	=236
4D\	.	8f#\L	.	12dd\L	.	(12ddd\L	.
.	.	.	.	12cc#\	.	12eee\	.
.	.	8a\	.	.	.	.	.
.	.	.	.	12b\J	.	12fff#\J	.
4A\	.	8e\	.	12a\L	.	12ggg\L	.
.	.	.	.	12b\	.	12fff#\	.
.	.	8a\J	.	.	.	.	.
.	.	.	.	12cc#\J	.	12eee\J	.
4AA/	.	8g\L	.	12dd\L	.	12ddd\L	.
.	.	.	.	12ee\	.	12ccc#\	.
.	.	8a\	.	.	.	.	.
.	.	.	.	12ff#\J	.	12bb\J	.
4A\	.	8g\	.	12gg\L	.	12aa\L	.
.	.	.	.	12ff#\	.	12bb\)	.
.	.	8a\J	.	.	.	.	.
.	.	.	.	12ee\J	.	12ccc#\J	.
=237	=237	=237	=237	=237	=237	=237	=237
4D\	f	4f#\	f	4dd\	f	4ddd\	f
4r	.	4r	.	4r	.	4r	.
2r	.	2r	.	2r	.	2r	.
=238	=238	=238	=238	=238	=238	=238	=238
4E-\	f	4G/	f	4cn/	.	4ccn\	f
4r	.	4r	.	4r	.	4r	.
2r	.	2r	.	2r	.	2r	.
=239	=239	=239	=239	=239	=239	=239	=239
4E\	f	4g\	f	4ccn\	f	4cccn\	f
4r	.	4r	.	4r	.	4r	.
2r	.	2r	.	2r	.	2r	.
=240	=240	=240	=240	=240	=240	=240	=240
4Fn\	f	4A/	f	4cn/	.	4ccn\	f
4r	.	4r	.	4r	.	4r	.
2r	.	2r	.	2r	.	2r	.
=241	=241	=241	=241	=241	=241	=241	=241
4F#\	p	4a\	p	4ccn\	p	(1dd	p
4r	.	4r	.	4r	.	.	.
2r	.	2r	.	2r	.	.	.
=242	=242	=242	=242	=242	=242	=242	=242
1r	.	1r	.	1r	.	[1cccn)	.
=243	=243	=243	=243	=243	=243	=243	=243
(1G	.	[1d	.	(1b-	.	8ccc\L]	.
.	.	.	.	.	.	(8bb-\	.
.	.	.	.	.	.	8aa\	.
.	.	.	.	.	.	8gg\J	.
.	.	.	.	.	.	8ff#\L	.
.	.	.	.	.	.	8gg\	.
.	.	.	.	.	.	8bb-\	.
.	.	.	.	.	.	8gg\J)	.
=244	=244	=244	=244	=244	=244	=244	=244
1A	.	1d_	.	1ccn)	.	1ff#	.
=245	=245	=245	=245	=245	=245	=245	=245
1B-	.	1d]	.	(2dd\	.	(8aa\L	.
.	.	.	.	.	.	8gg\	.
.	.	.	.	.	.	8ff#\	.
.	.	.	.	.	.	8gg\J	.
.	.	.	.	[2g/)	.	8aa\L	.
.	.	.	.	.	.	8gg\	.
.	.	.	.	.	.	8bb-\	.
.	.	.	.	.	.	8gg\J)	.
=246	=246	=246	=246	=246	=246	=246	=246
1cn)	.	(1cn	<	1g_	.	(1ee-	<
=247	=247	=247	=247	=247	=247	=247	=247
1d	.	1B-	<	1g]	<	1dd	<
=248	=248	=248	=248	=248	=248	=248	=248
1D	.	1A)	.	1cn	.	1f#)	.
=249	=249	=249	=249	=249	=249	=249	=249
4E-\	pp	4G/	pp	4B-/	.	4g/	pp
2E-\	.	2B-/	.	2e-/	.	(2g/	.
(4E-\	.	(4B-/	.	(4e-/	.	8a-/L	.
.	.	.	.	.	.	8g/J)	.
=250	=250	=250	=250	=250	=250	=250	=250
4A-\)	.	4B-/)	.	4d/	.	4fn/	.
2A-\	.	2B-/	.	2d/	.	[4b-\	.
.	.	.	.	.	.	8b-/L]	.
.	.	.	.	.	.	(8a-/	.
(4A-\	.	[4B-/	.	4d/	.	8g/	.
.	.	.	.	.	.	8fn/J)	.
=251	=251	=251	=251	=251	=251	=251	=251
4G\)	.	4B-/]	.	4e-/	.	4e-/	.
(4G\	.	[4B/	.	4e-/	.	(4ee-\	.
4D\)	.	4B/]	.	4fn/	.	4ffn\	.
(4D\	.	[4B/	.	4fn/	.	4ffn\	.
=252	=252	=252	=252	=252	=252	=252	=252
4E-\)	.	4B/]	.	4e-/	.	4gg\	.
(4E-\	.	[4B-/	.	4e-/	.	4gg\	.
4BB-/)	.	4B-/]	.	&(4d/&)	.	&(4ffn\&)	.
4BB-/	.	4B-/	.	4d/	.	4ffn\	.
=253	=253	=253	=253	=253	=253	=253	=253
4E-\	.	4B-/	.	4e-/	.	4gg\	.
2E-\	.	2B-/	.	2g/	.	2gg\	.
(4E-\	.	4B-/	.	8g/L	.	8gg\L	.
.	.	.	.	8f#/J)	.	8ff#\J)	.
=254	=254	=254	=254	=254	=254	=254	=254
4D\)	.	4A-/	.	4g/	.	4gg\	.
2D\	.	2A-/	.	2g/	.	2gg\	.
(4D\	.	(4A-/	.	(8g/L	.	(8gg\L	.
.	.	.	.	8f#/J)	.	8ff#\J)	.
=255	=255	=255	=255	=255	=255	=255	=255
4C#/)	<	4A/)	<	4g/	<	4gg\	<
(4C#/	<	(4A/	<	(4e/	<	(4gg\	<
4D\)	.	4A/)	.	4d/)	.	4ff#\	.
(4D\	.	(4A/	.	[4d/	.	4ff#\	.
=256	=256	=256	=256	=256	=256	=256	=256
4GG/)	.	4B/)	.	4d/]	.	4ee\	.
(4GG/	.	(4B/	.	(4d/	.	4ee\	.
4AA/)	.	4G/)	.	4c#/)	.	&(4a/&)	.
4AA/	.	4G/	.	4c#/	.	4a/	.
=257	=257	=257	=257	=257	=257	=257	=257
4DD/	p	(8F#/L	p	(1a	p	4dd\	.
.	.	8A/	.	.	.	.	.
4r	.	8d/	.	.	.	4r	.
.	.	8A/J	.	.	.	.	.
2r	.	8d/L	.	.	.	2r	.
.	.	8A/	.	.	.	.	.
.	.	8d/	.	.	.	.	.
.	.	8A/J)	.	.	.	.	.
=258	=258	=258	=258	=258	=258	=258	=258
1r	.	(8c#/L	.	[1gg)	.	1r	.
.	.	8A/	.	.	.	.	.
.	.	8c#/	.	.	.	.	.
.	.	8A/J	.	.	.	.	.
.	.	8c#/L	.	.	.	.	.
.	.	8A/	.	.	.	.	.
.	.	8c#/	.	.	.	.	.
.	.	8A/J)	.	.	.	.	.
=259	=259	=259	=259	=259	=259	=259	=259
(1AA	.	(8d/L	.	8gg\L]	.	1r	.
.	.	8A/	.	(8ff#\	.	.	.
.	.	8d/	.	8ee\	.	.	.
.	.	8A/J	.	8dd\J	.	.	.
.	.	8d/L	.	8cc#\L	.	.	.
.	.	8A/	.	8dd\	.	.	.
.	.	8d/	.	8ff#\	.	.	.
.	.	8A/J)	.	8dd\J)	.	.	.
=260	=260	=260	=260	=260	=260	=260	=260
[1G)	.	(8e\L	.	(8dd\L	.	1r	.
.	.	8A\	.	8cc#\	.	.	.
.	.	8e\	.	8b\	.	.	.
.	.	8A\J	.	8a\J	.	.	.
.	.	8e\L	.	8g#/L	.	.	.
.	.	8A\	.	8a/	.	.	.
.	.	8e\	.	8b/	.	.	.
.	.	8A\J)	.	8a/J)	.	.	.
=261	=261	=261	=261	=261	=261	=261	=261
8G\L]	<	(8d/L	<	[1a	p	1aa	p
(8F#\	.	8A/	<	.	.	.	.
8E\	.	8d/	.	.	.	.	.
8D\J	.	8A/J	.	.	.	.	.
8C#\L	.	8d/L	.	.	.	.	.
8D\	.	8A/	.	.	.	.	.
8F#\	.	8d/	.	.	.	.	.
8D\J)	.	8A/J)	.	.	.	.	.
=262	=262	=262	=262	=262	=262	=262	=262
(8D/L	.	4e\	.	1a_	.	[1ggg)	<
8C#/	.	.	.	.	.	.	.
8BB/	.	4e\	.	.	.	.	.
8AA/J	.	.	.	.	.	.	.
8GG#/L	.	4e\	.	.	.	.	.
8AA/	.	.	.	.	.	.	.
8BB/	.	4e\	.	.	.	.	.
8AA/J)	.	.	.	.	.	.	.
=263	=263	=263	=263	=263	=263	=263	=263
1D	.	4A/	.	4a/]	.	8ggg\L]	.
.	.	.	.	.	.	(8fff#\	.
.	.	4d\	.	4f#/	.	8eee\	.
.	.	.	.	.	.	8ddd\J	.
.	.	4d\	.	4f#/	.	8ccc#\L	.
.	.	.	.	.	.	8ddd\	.
.	.	4d\	.	4f#/	.	8fff#\	.
.	.	.	.	.	.	8ddd\J)	.
=264	=264	=264	=264	=264	=264	=264	=264
1GG#	f	1D 1d	.	1fn	f	(8ccc#\L	f
.	.	.	.	.	.	8bb\	.
.	.	.	.	.	.	8aa#\	.
.	.	.	.	.	.	8bb\J	.
.	.	.	.	.	.	8ccc#\L	.
.	.	.	.	.	.	8bb\	.
.	.	.	.	.	.	8ddd\	.
.	.	.	.	.	.	8bb\J)	.
=265	=265	=265	=265	=265	=265	=265	=265
[1AA	.	4D/ 4d/	.	4f#/	p	8aa\L	p
.	.	.	.	.	.	(8a\	.
.	.	4r	.	4r	.	8g#\	.
.	.	.	.	.	.	8a\J	.
.	.	[2d\	.	[2ff#\	.	8cc#\L	.
.	.	.	.	.	.	8b\	.
.	.	.	.	.	.	8dd\	.
.	.	.	.	.	.	8cc#\J	.
=266	=266	=266	=266	=266	=266	=266	=266
1AA_	p	2.d\]	<	2.ff#\]	<	8ee\L	<
.	.	.	.	.	.	8dd\	<
.	.	.	.	.	.	8ff#\	.
.	.	.	.	.	.	8ee\J	.
.	.	.	.	.	.	8gg\L	.
.	.	.	.	.	.	8ff#\	.
.	.	8f#\L	<	(8aa\L	.	8aa\	.
.	.	8g\J	.	8bb\J	.	8gg\J	.
=267	=267	=267	=267	=267	=267	=267	=267
1AA_	.	8e\L	.	8gg\L	.	8bb\L	.
.	.	8f#\	.	8aa\	.	8aa\	.
.	.	8d\	.	8ff#\	.	8ccc#\	.
.	.	8e\J	.	8gg\J	.	8bb\J	.
.	.	8c#\L	.	8ee\L	.	8ddd\L	.
.	.	8d\	.	8ff#\	.	8ccc#\	.
.	.	8B\	.	8dd\	.	8eee\	.
.	.	8c#\J	.	8ee\J	.	8ddd\J)	.
=268	=268	=268	=268	=268	=268	=268	=268
4AA/]	.	8A/L	.	8cc#\L	.	(8fff#\L	.
.	.	8B/	.	8dd\	.	8eee\J	.
4AA/	.	8G/	.	8b\	.	2ggg\	.
.	.	8A/J	.	8cc#\J	.	.	.
4AA/	.	8F#/L	.	8a/L	.	.	.
.	.	8G/	.	8b/	.	.	.
4AA/	.	8E/	.	8g/	.	4ccc#\	.
.	.	8F#/J	.	8a/J	.	.	.
=269	=269	=269	=269	=269	=269	=269	=269
4D\	f	4D/	.	4f#/	f	4ddd\	f
4r	f	4r	.	4r	.	4r	.
2r	.	2r	.	2r	.	2r	.
=270	=270	=270	=270	=270	=270	=270	=270
4AA/	ff	4A/	ff	4a\ 4gg\	.	4a\ 4ee\ 4ccc#\	ff
4r	.	4r	.	4r	.	4r	.
2r	.	2r	.	2r	.	2r	.
=271	=271	=271	=271	=271	=271	=271	=271
4DD/	.	4D/ 4d/	.	4d/ 4a/ 4ff#/	.	4d\ 4ff#\ 4ddd\	.
4r	.	4r	.	4r	.	4r	.
2r	.	2r	.	2r	.	2r	.
==	==	==	==	==	==	==	==
*-	*-	*-	*-	*-	*-	*-	*-
!!!ENC: Craig Stuart Sapp
!!!END: 2006/03/11/
